; generated by PrusaSlicer 2.9.3 on 2025-11-04 at 17:04:08 UTC


;
;
; 

; external perimeters extrusion width = 0.45mm
; perimeters extrusion width = 0.45mm
; infill extrusion width = 0.45mm
; solid infill extrusion width = 0.45mm
; top infill extrusion width = 0.40mm
; first layer extrusion width = 0.42mm

; external perimeters extrusion width = 0.45mm
; perimeters extrusion width = 0.45mm
; infill extrusion width = 0.45mm
; solid infill extrusion width = 0.45mm
; top infill extrusion width = 0.40mm
; first layer extrusion width = 0.42mm

M73 P0 R32
M73 Q0 S33
M201 X1000 Y1000 Z200 E5000 ; sets maximum accelerations, mm/sec^2
M203 X200 Y200 Z12 E120 ; sets maximum feedrates, mm / sec
M204 S1250 T1250 ; sets acceleration (S) and retract acceleration (R), mm/sec^2
M205 X8.00 Y8.00 Z0.40 E4.50 ; sets the jerk limits, mm/sec
M205 S0 T0 ; sets the minimum extruding and travel feed rate, mm/sec

; printing object rim_16x8mm.stl id:0 copy 0
; stop printing object rim_16x8mm.stl id:0 copy 0
; printing object rim_16x8mm.stl id:1 copy 0
; stop printing object rim_16x8mm.stl id:1 copy 0

;TYPE:Custom
M862.3 P "MK3S" ; printer model check
M862.1 P0.4 ; nozzle diameter check
M115 U3.14.1 ; tell printer latest fw version
G90 ; use absolute coordinates
M83 ; extruder relative mode
M104 S240 ; set extruder temp
M140 S85 ; set bed temp
M190 S85 ; wait for bed temp
M109 S240 ; wait for extruder temp
G28 W ; home all without mesh bed level
G80 X109.289 Y94.1969 W41.5067 H21.6328 ; mesh bed levelling

G1 Z0.2 F720
G1 Y-3 F1000 ; go outside print area
G92 E0
G1 X60 E9 F1000 ; intro line
G1 X100 E12.5 F1000 ; intro line
M73 Q0 S32

G92 E0
M221 S95

; Don't change E values below. Excessive value can damage the printer.
M907 E430 ; set extruder motor current
G21 ; set units to millimeters
G90 ; use absolute coordinates
M83 ; use relative distances for extrusion

M900 K0.08 ; Filament gcode LA 1.5
M900 K45 ; Filament gcode LA 1.0




M107
;LAYER_CHANGE
;Z:0.2
;HEIGHT:0.2
G1 E-1 F2100
G1 Z.4 F720
G1 X111.913 Y98.203 F10800
G1 Z.2 F720
G1 E1 F2100
M204 S800
;TYPE:Skirt/Brim
;WIDTH:0.42
G1 F1200
G1 X112.669 Y97.383 E.03497
G1 X113.508 Y96.648 E.03497
G1 X114.419 Y96.006 E.03494
G1 X115.272 Y95.523 E.03074
G1 X116.292 Y95.073 E.03496
G1 X117.354 Y94.733 E.03496
G1 X118.446 Y94.507 E.03496
G1 X119.556 Y94.397 E.03497
G1 X140.166 Y94.511 E.64622
G1 X141.915 Y94.678 E.05509
G1 X143.532 Y95.104 E.05243
G1 X144.441 Y95.47 E.03072
G1 X145.429 Y95.986 E.03495
G1 X146.795 Y96.95 E.05242
G1 X147.992 Y98.116 E.05239
G1 X148.991 Y99.457 E.05243
G1 X149.765 Y100.939 E.05242
G1 X150.328 Y102.655 E.05663
G1 X150.581 Y104.308 E.05243
G1 X150.603 Y105.423 E.03497
G1 X150.526 Y106.4 E.03073
G1 X150.186 Y108.036 E.05239
G1 X149.592 Y109.599 E.05243
G1 X148.759 Y111.049 E.05243
G1 X147.614 Y112.446 E.05663
G1 X146.357 Y113.548 E.05241
G1 X144.941 Y114.438 E.05244
G1 X143.927 Y114.902 E.03496
G1 X142.87 Y115.256 E.03495
G1 X141.364 Y115.559 E.04817
G1 X140.251 Y115.639 E.03499
G1 X120.114 Y115.515 E.63139
G1 X118.58 Y115.414 E.0482
G1 X117.486 Y115.201 E.03495
G1 X116.292 Y114.828 E.03922
G1 X115.272 Y114.377 E.03497
G1 X113.955 Y113.586 E.04817
G1 X113.079 Y112.896 E.03496
G1 X112.189 Y112.018 E.0392
G1 X111.488 Y111.151 E.03496
G1 X110.679 Y109.844 E.0482
G1 X109.982 Y108.177 E.05665
G1 X109.698 Y107.099 E.03495
G1 X109.529 Y105.997 E.03496
G1 X109.477 Y105.018 E.03074
G1 X109.529 Y103.904 E.03497
G1 X109.698 Y102.802 E.03496
G1 X109.982 Y101.723 E.03498
G1 X110.679 Y100.057 E.05662
G1 X111.247 Y99.097 E.03497
G1 X111.877 Y98.251 E.03307
M204 S1000
G1 X112.188 Y98.468 F10800
M204 S800
G1 F1200
G1 X112.213 Y98.432 E.00137
G1 X112.927 Y97.659 E.03299
G1 X113.735 Y96.949 E.03373
G1 X114.516 Y96.391 E.0301
G1 X115.449 Y95.856 E.03372
G1 X116.433 Y95.423 E.03371
G1 X117.458 Y95.096 E.03373
G1 X118.625 Y94.861 E.03732
G1 X119.696 Y94.768 E.03371
G1 X140.164 Y94.888 E.64177
G1 X141.841 Y95.048 E.05282
G1 X143.4 Y95.457 E.05054
G1 X144.291 Y95.815 E.03011
G1 X145.243 Y96.315 E.03372
G1 X146.56 Y97.244 E.05053
G1 X147.714 Y98.37 E.05055
G1 X148.676 Y99.664 E.05056
G1 X149.421 Y101.093 E.05053
G1 X149.959 Y102.735 E.05418
G1 X150.205 Y104.328 E.05054
G1 X150.23 Y105.287 E.03008
G1 X150.151 Y106.36 E.03373
G1 X149.822 Y107.938 E.05054
G1 X149.248 Y109.445 E.05056
G1 X148.444 Y110.842 E.05054
G1 X147.349 Y112.178 E.05416
G1 X146.138 Y113.241 E.05052
G1 X144.773 Y114.1 E.05057
G1 X143.796 Y114.548 E.0337
G1 X142.777 Y114.891 E.03371
G1 X141.309 Y115.185 E.04694
G1 X140.236 Y115.262 E.03373
G1 X120.119 Y115.138 E.63077
G1 X118.625 Y115.039 E.04695
G1 X117.57 Y114.834 E.0337
G1 X116.433 Y114.478 E.03736
G1 X115.076 Y113.846 E.04694
G1 X114.166 Y113.273 E.03372
G1 X113.235 Y112.531 E.03733
G1 X112.474 Y111.771 E.03372
G1 X111.556 Y110.589 E.04693
G1 X110.957 Y109.56 E.03733
G1 X110.521 Y108.577 E.03372
G1 X110.192 Y107.553 E.03372
G1 X109.973 Y106.5 E.03372
G1 X109.871 Y105.546 E.03008
G1 X109.917 Y103.819 E.05417
G1 X110.093 Y102.758 E.03372
G1 X110.379 Y101.722 E.0337
G1 X110.726 Y100.827 E.0301
G1 X111.213 Y99.868 E.03372
G1 X112.154 Y98.517 E.05162
M204 S1000
;WIPE_START
G1 F8640
G1 X112.188 Y98.468 E-.01377
G1 X112.213 Y98.432 E-.01012
G1 X112.927 Y97.659 E-.24298
G1 X113.735 Y96.949 E-.24836
G1 X114.516 Y96.391 E-.22163
G1 X115.449 Y95.856 E-.24834
G1 X115.508 Y95.83 E-.0148
;WIPE_END
G1 Z.4 F720
; printing object rim_16x8mm.stl id:0 copy 0
G1 X118.94 Y107.699 F10800
G1 Z.2 F720
G1 E1 F2100
M204 S800
;TYPE:External perimeter
;WIDTH:0.56104
G1 F1200
G1 X118.89 Y107.656 E.00284
;WIDTH:0.527913
G1 X118.798 Y107.575 E.00494
;WIDTH:0.494785
G1 X118.731 Y107.436 E.0058
;WIDTH:0.457392
G1 X118.664 Y107.297 E.00532
;WIDTH:0.419999
G1 X118.633 Y106.417 E.02761
G1 X118.587 Y106.36 E.0023
G1 X117.781 Y106.35 E.02527
;WIDTH:0.469642
G1 X117.428 Y106.187 E.0138
;WIDTH:0.51915
G1 X117.332 Y106.076 E.00581
;WIDTH:0.568657
G1 X117.237 Y105.965 E.00639
G1 X117.078 Y105.25 E.03202
;WIDTH:0.573709
G1 X117.097 Y104.489 E.0336
G1 X117.242 Y103.925 E.0257
;WIDTH:0.573288
G1 X117.284 Y103.83 E.00458
G1 X117.35 Y103.767 E.00402
;WIDTH:0.536661
G1 X117.415 Y103.705 E.00369
;WIDTH:0.500033
G1 X117.598 Y103.628 E.00755
;WIDTH:0.460016
G1 X117.781 Y103.551 E.00689
;WIDTH:0.419999
G1 X118.596 Y103.541 E.02556
G1 X118.633 Y103.483 E.00216
G1 X118.642 Y102.69 E.02487
;WIDTH:0.455408
G1 X118.721 Y102.508 E.00681
;WIDTH:0.490816
G1 X118.799 Y102.327 E.00734
;WIDTH:0.526578
G1 X118.903 Y102.241 E.00543
;WIDTH:0.56234
G1 X119.006 Y102.154 E.00582
;WIDTH:0.569276
G1 X119.317 Y102.06 E.01422
G1 X119.455 Y102.067 E.00605
;WIDTH:0.519517
G1 X119.593 Y102.073 E.00547
;WIDTH:0.469758
G1 X119.731 Y102.079 E.0049
;WIDTH:0.419999
G1 X120.291 Y102.051 E.01758
G1 X120.652 Y102.13 E.01159
;WIDTH:0.467012
G1 X120.802 Y102.141 E.0053
;WIDTH:0.514025
G1 X120.952 Y102.153 E.00589
;WIDTH:0.561037
G1 X121.102 Y102.164 E.00648
G1 X121.193 Y102.246 E.00528
;WIDTH:0.525947
G1 X121.285 Y102.327 E.00492
;WIDTH:0.490856
G1 X121.363 Y102.508 E.00734
;WIDTH:0.455428
G1 X121.442 Y102.69 E.00681
;WIDTH:0.419999
G1 X121.452 Y103.504 E.02552
G1 X121.509 Y103.541 E.00213
G1 X122.303 Y103.551 E.0249
;WIDTH:0.45937
G1 X122.486 Y103.628 E.00688
;WIDTH:0.498741
G1 X122.668 Y103.705 E.00749
;WIDTH:0.533308
G1 X122.755 Y103.811 E.00559
;WIDTH:0.567875
G1 X122.841 Y103.916 E.00592
G1 X123.006 Y104.651 E.03288
;WIDTH:0.56287
G1 X122.981 Y105.442 E.03422
;WIDTH:0.56802
G1 X122.844 Y105.976 E.02407
G1 X122.75 Y106.082 E.00619
;WIDTH:0.518833
G1 X122.656 Y106.187 E.00558
;WIDTH:0.469645
G1 X122.303 Y106.35 E.0138
;WIDTH:0.419999
G1 X121.488 Y106.36 E.02556
G1 X121.451 Y106.417 E.00213
G1 X121.442 Y107.211 E.0249
;WIDTH:0.457394
G1 X121.364 Y107.393 E.00682
;WIDTH:0.494789
G1 X121.286 Y107.575 E.00744
;WIDTH:0.529256
G1 X121.177 Y107.663 E.00567
;WIDTH:0.563722
G1 X121.067 Y107.75 E.00607
;WIDTH:0.567191
G1 X120.58 Y107.885 E.02203
G1 X120.394 Y107.87 E.00813
;WIDTH:0.518127
G1 X120.208 Y107.855 E.00737
;WIDTH:0.469063
G1 X120.021 Y107.84 E.00665
;WIDTH:0.419999
G1 X119.712 Y107.835 E.00969
G1 X119.432 Y107.771 E.00901
;WIDTH:0.467013
G1 X119.282 Y107.759 E.00531
;WIDTH:0.514027
G1 X119.132 Y107.748 E.00589
;WIDTH:0.56104
G1 X118.986 Y107.737 E.00631
M204 S1000
G1 X119.248 Y108.433 F10800
M204 S800
;WIDTH:0.467013
G1 F1200
G1 X119.278 Y108.447 E.00117
;WIDTH:0.419999
G1 X119.62 Y108.537 E.01109
G1 X119.705 Y108.694 E.0056
G1 X119.703 Y111.658 E.09293
;WIDTH:0.456708
G1 X119.657 Y111.76 E.00385
M73 Q1 S32
;WIDTH:0.493416
G1 X119.612 Y111.861 E.00414
;WIDTH:0.52825
G1 X119.546 Y111.888 E.00288
;WIDTH:0.563083
G1 X119.48 Y111.916 E.0031
;WIDTH:0.568742
G1 X118.926 Y111.845 E.02442
;WIDTH:0.575075
G1 X118.302 Y111.71 E.02825
;WIDTH:0.576017
G1 X117.609 Y111.49 E.03223
G1 X116.623 Y111.04 E.04804
;WIDTH:0.57262
G1 X115.972 Y110.625 E.034
;WIDTH:0.57442
G1 X115.401 Y110.164 E.03243
M73 P1 R32
;WIDTH:0.575615
G1 X114.885 Y109.652 E.0322
G1 X114.289 Y108.926 E.04161
;WIDTH:0.557271
G1 X114.282 Y108.878 E.00207
;WIDTH:0.52459
G1 X114.275 Y108.831 E.0019
;WIDTH:0.531152
G1 X114.33 Y108.676 E.00668
;WIDTH:0.570394
G1 X114.385 Y108.521 E.00721
G1 X116.931 Y107.05 E.12896
;WIDTH:0.568006
G1 X117.013 Y107.076 E.00376
;WIDTH:0.51867
G1 X117.096 Y107.102 E.00344
;WIDTH:0.469334
G1 X117.178 Y107.128 E.00305
;WIDTH:0.419999
G1 X117.558 Y107.536 E.01748
G1 X118.16 Y107.993 E.0237
G1 X118.288 Y108.076 E.00478
;WIDTH:0.467013
G1 X118.45 Y108.121 E.00593
;WIDTH:0.514027
G1 X118.613 Y108.166 E.00662
;WIDTH:0.56104
G1 X118.775 Y108.211 E.00724
G1 X118.943 Y108.29 E.008
;WIDTH:0.514027
G1 X119.111 Y108.368 E.00726
;WIDTH:0.467013
G1 X119.194 Y108.407 E.00323
M204 S1000
;WIPE_START
G1 F8640
G1 X119.248 Y108.433 E-.01384
G1 X119.278 Y108.447 E-.00764
G1 X119.62 Y108.537 E-.08166
G1 X119.705 Y108.694 E-.04122
G1 X119.703 Y111.658 E-.6844
G1 X119.657 Y111.76 E-.02584
G1 X119.612 Y111.861 E-.02553
G1 X119.546 Y111.888 E-.01647
G1 X119.48 Y111.916 E-.01655
G1 X119.107 Y111.868 E-.08685
;WIPE_END
G1 Z.4 F720
G1 X120.961 Y111.862 F10800
G1 Z.2 F720
G1 E1 F2100
M204 S800
;WIDTH:0.568775
G1 F1200
G1 X120.601 Y111.912 E.01589
;WIDTH:0.568741
G1 X120.541 Y111.863 E.00339
;WIDTH:0.519161
G1 X120.48 Y111.815 E.00307
;WIDTH:0.46958
G1 X120.42 Y111.766 E.00275
;WIDTH:0.419999
G1 X120.381 Y111.651 E.00381
G1 X120.379 Y108.694 E.09271
;WIDTH:0.457631
G1 X120.423 Y108.615 E.00312
;WIDTH:0.495263
G1 X120.468 Y108.535 E.00345
;WIDTH:0.532895
G1 X120.513 Y108.455 E.00374
;WIDTH:0.574915
G1 X121.048 Y108.312 E.0245
G1 X121.32 Y108.218 E.01273
;WIDTH:0.534852
G1 X121.591 Y108.124 E.01173
;WIDTH:0.494789
G1 X121.731 Y108.08 E.00551
;WIDTH:0.457394
G1 X121.87 Y108.036 E.00502
;WIDTH:0.419999
G1 X122.312 Y107.724 E.01696
G1 X122.888 Y107.144 E.02563
;WIDTH:0.453448
G1 X122.969 Y107.1 E.00315
;WIDTH:0.486898
G1 X123.05 Y107.057 E.00339
;WIDTH:0.527452
G1 X123.102 Y107.053 E.0021
;WIDTH:0.568006
G1 X123.153 Y107.05 E.00223
;WIDTH:0.570388
G1 X125.69 Y108.516 E.12851
G1 X125.726 Y108.566 E.0027
;WIDTH:0.534756
G1 X125.761 Y108.615 E.00246
;WIDTH:0.534422
G1 X125.774 Y108.772 E.00644
;WIDTH:0.569721
G1 X125.786 Y108.929 E.0069
G1 X125.483 Y109.328 E.02195
;WIDTH:0.567296
G1 X124.955 Y109.914 E.03439
;WIDTH:0.568532
G1 X124.34 Y110.455 E.0358
;WIDTH:0.570275
G1 X123.665 Y110.922 E.03599
G1 X122.939 Y111.301 E.03591
;WIDTH:0.566898
G1 X122.176 Y111.6 E.0357
;WIDTH:0.567902
G1 X121.382 Y111.804 E.03579
;WIDTH:0.568775
G1 X121.02 Y111.854 E.01598
M204 S1000
;WIPE_START
G1 F8640
G1 X120.961 Y111.862 E-.01375
G1 X120.601 Y111.912 E-.08392
G1 X120.541 Y111.863 E-.01789
G1 X120.48 Y111.815 E-.01792
G1 X120.42 Y111.766 E-.01789
G1 X120.381 Y111.651 E-.02804
G1 X120.379 Y108.694 E-.68278
G1 X120.423 Y108.615 E-.02088
G1 X120.468 Y108.535 E-.02119
G1 X120.513 Y108.455 E-.02119
G1 X120.825 Y108.372 E-.07455
;WIPE_END
G1 Z.4 F720
G1 X113.911 Y108.025 F10800
G1 Z.2 F720
G1 E1 F2100
M204 S800
;WIDTH:0.570394
G1 F1200
G1 X113.75 Y107.996 E.00718
;WIDTH:0.572175
G1 X113.529 Y107.47 E.02511
;WIDTH:0.575182
G1 X113.246 Y106.553 E.04247
;WIDTH:0.583769
G1 X113.071 Y105.383 E.0532
;WIDTH:0.571723
G1 X113.068 Y104.568 E.03584
;WIDTH:0.58377
G1 X113.246 Y103.347 E.05549
;WIDTH:0.568122
G1 X113.482 Y102.555 E.03609
G1 X113.725 Y101.955 E.02827
;WIDTH:0.5617
G1 X113.772 Y101.921 E.0025
;WIDTH:0.522162
G1 X113.82 Y101.887 E.00234
;WIDTH:0.514298
G1 X113.956 Y101.86 E.00543
;WIDTH:0.545972
G1 X114.092 Y101.833 E.0058
;WIDTH:0.570364
G1 X116.688 Y103.317 E.13114
;WIDTH:0.579989
G1 X116.792 Y103.619 E.01426
G1 X116.609 Y104.264 E.02994
;WIDTH:0.580805
G1 X116.536 Y104.92 E.02952
;WIDTH:0.582359
G1 X116.621 Y105.71 E.03564
G1 X116.77 Y106.226 E.02409
;WIDTH:0.571854
G1 X116.763 Y106.277 E.00226
;WIDTH:0.537784
G1 X116.757 Y106.328 E.00211
;WIDTH:0.503713
G1 X116.75 Y106.379 E.00197
;WIDTH:0.518824
G1 X116.709 Y106.487 E.00457
;WIDTH:0.568006
G1 X116.668 Y106.595 E.00504
;WIDTH:0.570394
G1 X114.122 Y108.064 E.12892
G1 X113.971 Y108.036 E.00674
M204 S1000
;WIPE_START
G1 F8640
G1 X113.911 Y108.025 E-.01409
G1 X113.75 Y107.996 E-.03777
G1 X113.529 Y107.47 E-.13174
G1 X113.246 Y106.553 E-.22159
G1 X113.071 Y105.383 E-.27316
G1 X113.068 Y104.568 E-.18819
G1 X113.151 Y103.996 E-.13346
;WIPE_END
G1 Z.4 F720
G1 X117.419 Y102.516 F10800
G1 Z.2 F720
G1 E1 F2100
M204 S800
;WIDTH:0.419999
G1 F1200
G1 X117.201 Y102.752 E.01007
;WIDTH:0.461931
G1 X117.117 Y102.802 E.00341
;WIDTH:0.503863
G1 X117.033 Y102.852 E.00375
;WIDTH:0.535935
G1 X116.982 Y102.851 E.00209
;WIDTH:0.568006
G1 X116.931 Y102.851 E.00223
;WIDTH:0.570364
G1 X114.418 Y101.399 E.12729
G1 X114.364 Y101.352 E.00314
;WIDTH:0.544272
G1 X114.35 Y101.31 E.00185
;WIDTH:0.502848
G1 X114.337 Y101.267 E.00172
;WIDTH:0.461424
G1 X114.323 Y101.224 E.00157
;WIDTH:0.466423
G1 X114.299 Y101.162 E.00234
;WIDTH:0.512847
G1 X114.274 Y101.101 E.00258
;WIDTH:0.559271
G1 X114.25 Y101.039 E.00285
;WIDTH:0.566518
G1 X114.717 Y100.432 E.03334
;WIDTH:0.579116
G1 X115.423 Y99.726 E.04452
G1 X115.988 Y99.272 E.03232
;WIDTH:0.576768
G1 X116.607 Y98.878 E.03257
G1 X117.263 Y98.55 E.03256
;WIDTH:0.576472
G1 X117.751 Y98.354 E.02333
;WIDTH:0.579197
G1 X118.677 Y98.112 E.04268
G1 X119.481 Y97.987 E.03628
;WIDTH:0.558543
G1 X119.542 Y98.035 E.00333
;WIDTH:0.512362
G1 X119.604 Y98.082 E.00304
;WIDTH:0.466181
G1 X119.665 Y98.13 E.00273
;WIDTH:0.419999
G1 X119.703 Y98.249 E.00392
G1 X119.705 Y101.206 E.09271
G1 X119.651 Y101.339 E.0045
;WIDTH:0.469358
G1 X119.499 Y101.409 E.00593
;WIDTH:0.518717
G1 X119.348 Y101.478 E.00657
;WIDTH:0.568076
G1 X118.693 Y101.727 E.0306
;WIDTH:0.564955
G1 X118.533 Y101.774 E.00724
;WIDTH:0.516637
G1 X118.373 Y101.821 E.00657
;WIDTH:0.468318
G1 X118.212 Y101.869 E.00594
;WIDTH:0.419999
G1 X117.599 Y102.321 E.02388
G1 X117.459 Y102.472 E.00646
M204 S1000
;WIPE_START
G1 F8640
G1 X117.419 Y102.516 E-.01373
G1 X117.201 Y102.752 E-.07418
G1 X117.117 Y102.802 E-.02257
G1 X117.033 Y102.852 E-.02257
G1 X116.982 Y102.851 E-.01178
G1 X116.931 Y102.851 E-.01178
G1 X114.418 Y101.399 E-.67015
G1 X114.364 Y101.352 E-.01653
G1 X114.35 Y101.31 E-.01022
G1 X114.337 Y101.267 E-.01037
G1 X114.323 Y101.224 E-.01044
G1 X114.299 Y101.162 E-.01535
G1 X114.274 Y101.101 E-.01522
G1 X114.25 Y101.039 E-.01535
G1 X114.461 Y100.765 E-.07976
;WIPE_END
G1 Z.4 F720
G1 X120.96 Y98.043 F10800
G1 Z.2 F720
G1 E1 F2100
M204 S800
;WIDTH:0.573821
G1 F1200
G1 X121.244 Y98.073 E.01261
;WIDTH:0.575319
G1 X121.952 Y98.238 E.03218
;WIDTH:0.580905
G1 X122.999 Y98.638 E.05014
G1 X123.636 Y98.97 E.03213
;WIDTH:0.576759
G1 X124.244 Y99.38 E.03255
;WIDTH:0.576423
G1 X124.639 Y99.694 E.02238
;WIDTH:0.567705
G1 X125.217 Y100.261 E.03533
G1 X125.786 Y100.981 E.04004
;WIDTH:0.563043
G1 X125.817 Y101.026 E.00236
;WIDTH:0.570409
G1 X125.714 Y101.371 E.01579
G1 X123.133 Y102.862 E.13074
;WIDTH:0.57001
G1 X123.097 Y102.849 E.00168
;WIDTH:0.532508
G1 X123.061 Y102.836 E.00156
;WIDTH:0.495005
G1 X123.026 Y102.823 E.0014
;WIDTH:0.457502
G1 X122.99 Y102.809 E.00133
;WIDTH:0.419999
G1 X122.888 Y102.757 E.00359
G1 X122.277 Y102.142 E.02718
G1 X121.84 Y101.844 E.01658
;WIDTH:0.467012
G1 X121.663 Y101.792 E.00651
