; generated by PrusaSlicer 2.9.3 on 2025-11-06 at 14:10:15 UTC


;
;
; 

; external perimeters extrusion width = 0.45mm
; perimeters extrusion width = 0.45mm
; infill extrusion width = 0.45mm
; solid infill extrusion width = 0.45mm
; top infill extrusion width = 0.40mm
; first layer extrusion width = 0.42mm

; external perimeters extrusion width = 0.45mm
; perimeters extrusion width = 0.45mm
; infill extrusion width = 0.45mm
; solid infill extrusion width = 0.45mm
; top infill extrusion width = 0.40mm
; first layer extrusion width = 0.42mm

M73 P0 R44
M73 Q0 S45
M201 X1000 Y1000 Z200 E5000 ; sets maximum accelerations, mm/sec^2
M203 X200 Y200 Z12 E120 ; sets maximum feedrates, mm / sec
M204 S1250 T1250 ; sets acceleration (S) and retract acceleration (R), mm/sec^2
M205 X8.00 Y8.00 Z0.40 E4.50 ; sets the jerk limits, mm/sec
M205 S0 T0 ; sets the minimum extruding and travel feed rate, mm/sec

; printing object rim_17.5x12.5mm_no_chamfer.stl id:0 copy 0
; stop printing object rim_17.5x12.5mm_no_chamfer.stl id:0 copy 0
; printing object rim_17.5x12.5mm_no_chamfer.stl id:1 copy 0
; stop printing object rim_17.5x12.5mm_no_chamfer.stl id:1 copy 0

;TYPE:Custom
M862.3 P "MK3S" ; printer model check
M862.1 P0.4 ; nozzle diameter check
M115 U3.14.1 ; tell printer latest fw version
G90 ; use absolute coordinates
M83 ; extruder relative mode
M104 S230 ; set extruder temp
M140 S80 ; set bed temp
M190 S80 ; wait for bed temp
M109 S230 ; wait for extruder temp
G28 W ; home all without mesh bed level
G80 X103.513 Y93.3357 W42.9746 H23.0161 ; mesh bed levelling

G1 Z0.2 F720
G1 Y-3 F1000 ; go outside print area
G92 E0
G1 X60 E9 F1000 ; intro line
G1 X100 E12.5 F1000 ; intro line

G92 E0
M221 S95

; Don't change E values below. Excessive value can damage the printer.
M907 E430 ; set extruder motor current
G21 ; set units to millimeters
G90 ; use absolute coordinates
M83 ; use relative distances for extrusion

M900 K0.08 ; Filament gcode LA 1.5
M900 K45 ; Filament gcode LA 1.0




M107
;LAYER_CHANGE
;Z:0.2
;HEIGHT:0.2
G1 E-2 F2100
G1 Z.4 F720
G1 X106.18 Y97.771 F10800
G1 Z.2 F720
G1 E2 F2100
M204 S800
;TYPE:Skirt/Brim
;WIDTH:0.42
G1 F1200
G1 X107.495 Y96.386 E.05988
G1 X108.42 Y95.647 E.03712
G1 X109.417 Y95.007 E.03715
G1 X110.475 Y94.476 E.03712
G1 X111.583 Y94.058 E.03713
G1 X112.749 Y93.755 E.03777
G1 X114.357 Y93.544 E.05085
G1 X134.985 Y93.532 E.64678
G1 X136.82 Y93.683 E.05773
G1 X138.544 Y94.107 E.05567
G1 X140.181 Y94.797 E.0557
G1 X141.09 Y95.322 E.03291
G1 X142.052 Y96.012 E.03712
G1 X143.348 Y97.227 E.0557
G1 X144.437 Y98.629 E.05566
G1 X145.293 Y100.184 E.05566
G1 X145.931 Y101.984 E.05988
G1 X146.244 Y103.732 E.05568
G1 X146.28 Y105.507 E.05567
G1 X146.17 Y106.551 E.03292
G1 X145.931 Y107.711 E.03713
G1 X145.348 Y109.388 E.05567
G1 X144.51 Y110.954 E.05569
G1 X143.438 Y112.369 E.05566
G1 X142.053 Y113.683 E.05986
G1 X140.583 Y114.68 E.05569
G1 X139.525 Y115.211 E.03712
G1 X138.417 Y115.629 E.03713
G1 X136.82 Y116.013 E.0515
G1 X135.643 Y116.143 E.03713
G1 X115.015 Y116.155 E.64678
G1 X113.766 Y116.086 E.03922
G1 X112.598 Y115.893 E.03712
G1 X111.024 Y115.427 E.05147
G1 X109.939 Y114.952 E.03714
G1 X108.797 Y114.293 E.04134
G1 X107.843 Y113.591 E.03714
G1 X106.652 Y112.461 E.05148
G1 X105.902 Y111.545 E.03712
G1 X105.183 Y110.439 E.04136
G1 X104.652 Y109.381 E.03712
G1 X104.234 Y108.272 E.03716
G1 X103.934 Y107.127 E.03711
G1 X103.77 Y106.089 E.03295
G1 X103.72 Y104.181 E.05984
G1 X103.851 Y103.004 E.03713
G1 X104.104 Y101.847 E.03713
G1 X104.429 Y100.848 E.03294
G1 X104.904 Y99.763 E.03714
G1 X105.49 Y98.734 E.03713
G1 X106.145 Y97.82 E.03526
M204 S1000
G1 X106.451 Y98.04 F10800
M204 S800
G1 F1200
G1 X106.48 Y98.001 E.00152
G1 X107.74 Y96.673 E.0574
G1 X108.633 Y95.957 E.03589
G1 X109.597 Y95.339 E.0359
G1 X110.619 Y94.824 E.03588
G1 X111.69 Y94.42 E.03589
G1 X113.248 Y94.046 E.05024
G1 X114.386 Y93.92 E.0359
G1 X134.985 Y93.909 E.64587
G1 X136.752 Y94.053 E.05559
G1 X138.419 Y94.463 E.05383
G1 X140.001 Y95.128 E.05381
G1 X140.893 Y95.643 E.03229
G1 X141.823 Y96.311 E.0359
G1 X143.074 Y97.486 E.05381
G1 X144.126 Y98.842 E.05381
G1 X144.953 Y100.347 E.05384
G1 X145.564 Y102.072 E.05738
G1 X145.868 Y103.761 E.05381
G1 X145.904 Y105.477 E.05382
G1 X145.796 Y106.502 E.03232
G1 X145.564 Y107.623 E.03589
G1 X145 Y109.244 E.05381
G1 X144.188 Y110.757 E.05384
G1 X143.151 Y112.124 E.0538
G1 X141.823 Y113.384 E.0574
G1 X140.403 Y114.349 E.05383
G1 X139.381 Y114.863 E.03587
G1 X137.87 Y115.398 E.05026
G1 X136.752 Y115.642 E.03588
G1 X135.499 Y115.773 E.0395
G1 X115.015 Y115.778 E.64226
G1 X113.816 Y115.712 E.03765
G1 X112.686 Y115.527 E.0359
G1 X111.15 Y115.072 E.05023
G1 X110.101 Y114.612 E.03591
G1 X109.011 Y113.982 E.03947
G1 X108.088 Y113.304 E.03591
G1 X106.926 Y112.201 E.05023
G1 X106.201 Y111.315 E.0359
G1 X105.515 Y110.259 E.03948
G1 X105.047 Y109.341 E.03231
G1 X104.631 Y108.274 E.03591
G1 X104.329 Y107.17 E.03589
G1 X104.144 Y106.04 E.0359
G1 X104.096 Y104.21 E.0574
G1 X104.222 Y103.072 E.0359
G1 X104.466 Y101.954 E.03588
G1 X104.825 Y100.867 E.03589
G1 X105.244 Y99.925 E.03233
G1 X105.811 Y98.931 E.03588
G1 X106.416 Y98.089 E.03251
M204 S1000
;WIPE_START
G1 F8640
G1 X106.451 Y98.04 E-.0139
G1 X106.48 Y98.001 E-.01122
G1 X107.74 Y96.673 E-.4227
G1 X108.633 Y95.957 E-.26429
G1 X109.597 Y95.339 E-.2644
G1 X110.619 Y94.824 E-.26425
G1 X111.69 Y94.42 E-.26431
G1 X113.248 Y94.046 E-.36997
G1 X113.786 Y93.986 E-.12496
;WIPE_END
G1 Z.4 F720
; printing object rim_17.5x12.5mm_no_chamfer.stl id:0 copy 0
G1 X112.267 Y105.946 F10800
G1 Z.2 F720
G1 E2 F2100
M204 S800
;TYPE:External perimeter
;WIDTH:0.546698
G1 F1200
G1 X112.26 Y105.939 E.00041
;WIDTH:0.57478
G1 X112.118 Y105.528 E.01923
;WIDTH:0.58026
G1 X112.046 Y104.818 E.03189
G1 X112.074 Y104.408 E.01836
;WIDTH:0.578233
G1 X112.213 Y103.826 E.02663
;WIDTH:0.573516
G1 X112.256 Y103.722 E.00497
G1 X112.323 Y103.658 E.00409
;WIDTH:0.536525
G1 X112.389 Y103.594 E.00377
;WIDTH:0.499533
G1 X112.572 Y103.517 E.00754
;WIDTH:0.459766
G1 X112.755 Y103.44 E.00688
;WIDTH:0.419999
G1 X113.57 Y103.43 E.02556
G1 X113.607 Y103.373 E.00213
G1 X113.616 Y102.579 E.0249
G1 X113.733 Y102.313 E.00911
G1 X114.002 Y102.112 E.01053
G1 X114.274 Y102.027 E.00894
G1 X114.977 Y101.932 E.02224
G1 X115.35 Y101.957 E.01172
G1 X115.61 Y102.016 E.00836
;WIDTH:0.466616
G1 X115.765 Y102.028 E.00548
;WIDTH:0.513233
G1 X115.92 Y102.041 E.00608
;WIDTH:0.55985
G1 X116.074 Y102.054 E.00664
G1 X116.166 Y102.136 E.0053
;WIDTH:0.524665
G1 X116.258 Y102.217 E.00491
;WIDTH:0.48948
G1 X116.337 Y102.398 E.00733
;WIDTH:0.45474
G1 X116.415 Y102.579 E.00675
;WIDTH:0.419999
G1 X116.425 Y103.394 E.02556
G1 X116.483 Y103.431 E.00216
G1 X117.277 Y103.44 E.0249
;WIDTH:0.460714
G1 X117.46 Y103.517 E.0069
;WIDTH:0.501429
G1 X117.643 Y103.594 E.00757
;WIDTH:0.542079
G1 X117.715 Y103.662 E.00411
;WIDTH:0.582729
G1 X117.787 Y103.731 E.00448
G1 X117.93 Y104.277 E.02533
;WIDTH:0.5819
G1 X117.992 Y104.704 E.01934
;WIDTH:0.574014
G1 X117.98 Y105.139 E.01922
;WIDTH:0.569028
G1 X117.821 Y105.854 E.03204
G1 X117.757 Y105.928 E.00428
;WIDTH:0.534462
G1 X117.693 Y106.002 E.004
;WIDTH:0.499895
G1 X117.628 Y106.076 E.00374
;WIDTH:0.465328
G1 X117.277 Y106.239 E.01359
;WIDTH:0.419999
G1 X116.471 Y106.249 E.02527
G1 X116.425 Y106.307 E.00232
G1 X116.415 Y107.101 E.0249
;WIDTH:0.462269
G1 X116.383 Y107.201 E.00366
;WIDTH:0.504538
G1 X116.351 Y107.302 E.00407
;WIDTH:0.546808
G1 X116.319 Y107.403 E.00444
;WIDTH:0.589077
G1 X116.287 Y107.503 E.00477
G1 X116.03 Y107.644 E.01331
;WIDTH:0.571452
G1 X115.705 Y107.72 E.01467
G1 X115.532 Y107.725 E.00761
;WIDTH:0.533589
G1 X115.359 Y107.73 E.00706
;WIDTH:0.495726
G1 X115.186 Y107.735 E.00652
;WIDTH:0.457863
G1 X115.013 Y107.739 E.00597
;WIDTH:0.419999
G1 X114.698 Y107.727 E.00988
G1 X114.347 Y107.647 E.01129
;WIDTH:0.457999
G1 X114.238 Y107.637 E.00378
;WIDTH:0.495998
G1 X114.128 Y107.627 E.00416
;WIDTH:0.533998
G1 X114.019 Y107.617 E.00447
;WIDTH:0.571997
G1 X113.91 Y107.606 E.00482
G1 X113.858 Y107.548 E.00343
;WIDTH:0.536617
G1 X113.807 Y107.49 E.00317
;WIDTH:0.501237
G1 X113.755 Y107.433 E.00294
;WIDTH:0.465856
G1 X113.616 Y107.101 E.01266
;WIDTH:0.419999
G1 X113.606 Y106.295 E.02527
G1 X113.549 Y106.249 E.0023
G1 X112.755 Y106.239 E.0249
;WIDTH:0.445524
G1 X112.578 Y106.158 E.00652
;WIDTH:0.47105
G1 X112.401 Y106.077 E.00693
;WIDTH:0.508874
G1 X112.33 Y106.008 E.00384
;WIDTH:0.546698
G1 X112.31 Y105.988 E.00118
M204 S1000
;WIPE_START
G1 F8640
G1 X112.267 Y105.946 E-.01388
G1 X112.26 Y105.939 E-.00229
G1 X112.118 Y105.528 E-.10041
G1 X112.046 Y104.818 E-.16478
G1 X112.074 Y104.408 E-.09489
G1 X112.213 Y103.826 E-.13816
G1 X112.256 Y103.722 E-.02599
G1 X112.323 Y103.658 E-.02139
G1 X112.389 Y103.594 E-.02123
G1 X112.572 Y103.517 E-.04584
G1 X112.755 Y103.44 E-.04584
G1 X113.57 Y103.43 E-.1882
G1 X113.607 Y103.373 E-.01569
G1 X113.616 Y102.579 E-.18335
G1 X113.733 Y102.313 E-.0671
G1 X114.002 Y102.112 E-.07754
G1 X114.274 Y102.027 E-.0658
G1 X114.977 Y101.932 E-.1638
G1 X115.35 Y101.957 E-.08632
G1 X115.61 Y102.016 E-.06156
G1 X115.765 Y102.028 E-.0359
G1 X115.92 Y102.041 E-.03592
G1 X116.074 Y102.054 E-.03569
G1 X116.166 Y102.136 E-.02846
G1 X116.258 Y102.217 E-.0283
G1 X116.337 Y102.398 E-.0456
G1 X116.415 Y102.579 E-.04551
G1 X116.424 Y103.274 E-.16056
;WIPE_END
G1 Z.4 F720
G1 X107.912 Y107.873 F10800
G1 Z.2 F720
G1 E2 F2100
M204 S800
;WIDTH:0.574246
G1 F1200
G1 X107.795 Y107.602 E.01304
;WIDTH:0.575797
G1 X107.549 Y106.833 E.03577
;WIDTH:0.576565
G1 X107.384 Y106.051 E.03546
G1 X107.281 Y104.855 E.05327
;WIDTH:0.572763
G1 X107.326 Y104.019 E.03688
;WIDTH:0.574528
G1 X107.456 Y103.223 E.03565
;WIDTH:0.575756
G1 X107.666 Y102.452 E.0354
G1 X108.058 Y101.469 E.04689
;WIDTH:0.565759
G1 X108.135 Y101.44 E.00358
;WIDTH:0.517173
G1 X108.211 Y101.412 E.00319
;WIDTH:0.468586
G1 X108.287 Y101.383 E.00288
;WIDTH:0.457646
G1 X108.335 Y101.38 E.00166
;WIDTH:0.495292
G1 X108.383 Y101.376 E.00181
;WIDTH:0.532938
G1 X108.43 Y101.373 E.00192
;WIDTH:0.570584
G1 X108.478 Y101.37 E.00211
G1 X111.637 Y103.192 E.16
;WIDTH:0.568031
G1 X111.666 Y103.238 E.00237
;WIDTH:0.53558
G1 X111.695 Y103.284 E.00223
;WIDTH:0.503128
G1 X111.692 Y103.321 E.00142
;WIDTH:0.461564
G1 X111.689 Y103.358 E.00129
;WIDTH:0.459746
G1 X111.709 Y103.395 E.00146
;WIDTH:0.499493
G1 X111.728 Y103.433 E.00161
;WIDTH:0.53924
G1 X111.748 Y103.471 E.00177
;WIDTH:0.578986
G1 X111.767 Y103.508 E.00185
G1 X111.555 Y104.277 E.03556
;WIDTH:0.578233
G1 X111.519 Y104.601 E.01451
;WIDTH:0.567585
G1 X111.561 Y105.373 E.03373
;WIDTH:0.57478
G1 X111.608 Y105.679 E.01369
G1 X111.754 Y106.179 E.02304
;WIDTH:0.56803
G1 X111.637 Y106.487 E.01439
;WIDTH:0.570611
G1 X108.451 Y108.325 E.16139
;WIDTH:0.572043
G1 X108.079 Y108.257 E.01664
;WIDTH:0.574246
G1 X107.936 Y107.928 E.01585
M204 S1000
;WIPE_START
G1 F8640
G1 X107.912 Y107.873 E-.01386
G1 X107.795 Y107.602 E-.06816
G1 X107.549 Y106.833 E-.18643
G1 X107.384 Y106.051 E-.18454
G1 X107.281 Y104.855 E-.27718
G1 X107.326 Y104.019 E-.19331
G1 X107.456 Y103.223 E-.18623
G1 X107.666 Y102.452 E-.18451
G1 X108.058 Y101.469 E-.24436
G1 X108.135 Y101.44 E-.019
G1 X108.211 Y101.412 E-.0187
G1 X108.287 Y101.383 E-.01878
G1 X108.335 Y101.38 E-.0111
G1 X108.383 Y101.376 E-.01112
G1 X108.43 Y101.373 E-.01087
G1 X108.478 Y101.37 E-.0111
G1 X109.832 Y102.151 E-.36075
;WIPE_END
G1 Z.4 F720
G1 X114.027 Y97.256 F10800
G1 Z.2 F720
G1 E2 F2100
M204 S800
;WIDTH:0.419999
G1 F1200
G1 X114.469 Y97.199 E.01397
G1 X114.639 Y97.273 E.00581
G1 X114.677 Y97.387 E.00377
G1 X114.679 Y101.093 E.1162
G1 X114.624 Y101.224 E.00445
G1 X113.692 Y101.522 E.03068
G1 X113.066 Y101.83 E.02187
G1 X112.656 Y102.135 E.01602
G1 X112.167 Y102.641 E.02206
;WIDTH:0.45751
G1 X112.106 Y102.669 E.00231
;WIDTH:0.495022
G1 X112.044 Y102.696 E.00254
;WIDTH:0.532534
G1 X111.983 Y102.723 E.00272
;WIDTH:0.570046
G1 X111.922 Y102.75 E.00292
G1 X111.9 Y102.738 E.0011
;WIDTH:0.570584
G1 X108.742 Y100.913 E.16003
G1 X108.687 Y100.866 E.00317
;WIDTH:0.564337
G1 X108.578 Y100.535 E.01511
;WIDTH:0.571922
G1 X109.008 Y99.969 E.03127
G1 X109.341 Y99.6 E.02186
G1 X109.558 Y99.422 E.01235
;WIDTH:0.534003
G1 X109.775 Y99.245 E.01143
;WIDTH:0.496002
G1 X109.991 Y99.067 E.01054
;WIDTH:0.458001
G1 X110.208 Y98.889 E.00969
;WIDTH:0.419999
G1 X111.137 Y98.235 E.03562
G1 X112.301 Y97.678 E.04046
G1 X113.048 Y97.442 E.02456
G1 X113.829 Y97.281 E.025
G1 X113.967 Y97.263 E.00436
M204 S1000
;WIPE_START
G1 F8640
G1 X114.027 Y97.256 E-.01395
G1 X114.469 Y97.199 E-.1029
G1 X114.639 Y97.273 E-.04281
G1 X114.677 Y97.387 E-.02775
G1 X114.679 Y101.093 E-.85573
G1 X114.624 Y101.224 E-.03281
G1 X113.692 Y101.522 E-.22593
G1 X113.066 Y101.83 E-.16109
G1 X112.656 Y102.135 E-.11799
G1 X112.167 Y102.641 E-.16248
G1 X112.106 Y102.669 E-.0155
G1 X112.044 Y102.696 E-.01561
G1 X111.983 Y102.723 E-.0154
G1 X111.922 Y102.75 E-.0154
G1 X111.9 Y102.738 E-.00579
G1 X111.192 Y102.329 E-.18886
;WIPE_END
G1 Z.4 F720
G1 X115.404 Y97.25 F10800
G1 Z.2 F720
G1 E2 F2100
M204 S800
;WIDTH:0.466942
G1 F1200
G1 X115.429 Y97.218 E.00143
;WIDTH:0.513885
G1 X115.467 Y97.169 E.00243
;WIDTH:0.560828
G1 X115.506 Y97.121 E.00266
;WIDTH:0.565618
G1 X116.229 Y97.203 E.03162
;WIDTH:0.566049
G1 X117.092 Y97.391 E.03842
;WIDTH:0.578118
G1 X118.166 Y97.786 E.05093
;WIDTH:0.580969
G1 X119.236 Y98.375 E.05464
G1 X119.879 Y98.836 E.0354
;WIDTH:0.582047
G1 X120.462 Y99.37 E.03544
G1 X121.095 Y100.065 E.04214
;WIDTH:0.565177
G1 X121.419 Y100.5 E.02355
;WIDTH:0.568688
G1 X121.451 Y100.552 E.00267
;WIDTH:0.570628
G1 X121.341 Y100.883 E.01531
G1 X118.132 Y102.738 E.16264
;WIDTH:0.568028
G1 X118.078 Y102.74 E.00236
;WIDTH:0.535593
G1 X118.024 Y102.742 E.00221
;WIDTH:0.503157
G1 X117.942 Y102.694 E.00364
;WIDTH:0.461578
G1 X117.86 Y102.646 E.00331
;WIDTH:0.419999
G1 X117.267 Y102.044 E.02649
G1 X116.814 Y101.734 E.01721
;WIDTH:0.466616
G1 X116.635 Y101.682 E.00657
;WIDTH:0.513233
G1 X116.457 Y101.631 E.00724
;WIDTH:0.55985
G1 X116.279 Y101.579 E.00797
G1 X116.106 Y101.499 E.00819
;WIDTH:0.513233
G1 X115.934 Y101.419 E.00742
;WIDTH:0.466616
G1 X115.761 Y101.339 E.00671
;WIDTH:0.419999
G1 X115.451 Y101.264 E.01
G1 X115.353 Y101.113 E.00564
G1 X115.355 Y97.377 E.11714
G1 X115.379 Y97.303 E.00244
M204 S1000
;WIPE_START
G1 F8640
G1 X115.404 Y97.25 E-.01353
G1 X115.429 Y97.218 E-.00938
G1 X115.467 Y97.169 E-.01432
G1 X115.506 Y97.121 E-.01428
G1 X116.229 Y97.203 E-.16801
G1 X117.092 Y97.391 E-.20394
G1 X118.166 Y97.786 E-.26423
G1 X119.236 Y98.375 E-.28202
G1 X119.879 Y98.836 E-.18269
G1 X120.462 Y99.37 E-.18255
G1 X121.095 Y100.065 E-.21706
G1 X121.419 Y100.5 E-.12524
G1 X121.451 Y100.552 E-.0141
G1 X121.341 Y100.883 E-.08054
G1 X120.486 Y101.377 E-.22811
;WIPE_END
G1 Z.4 F720
G1 X115.756 Y108.27 F10800
G1 Z.2 F720
G1 E2 F2100
M204 S800
;WIDTH:0.571452
G1 F1200
G1 X115.83 Y108.234 E.00362
G1 X116.313 Y108.103 E.02199
;WIDTH:0.589077
G1 X116.559 Y107.975 E.01259
G1 X116.675 Y107.944 E.00545
;WIDTH:0.544629
G1 X116.79 Y107.913 E.00497
;WIDTH:0.500181
G1 X117.007 Y107.789 E.0095
;WIDTH:0.46009
G1 X117.225 Y107.664 E.00872
;WIDTH:0.419999
G1 X117.928 Y106.988 E.03058
;WIDTH:0.469344
G1 X117.996 Y106.973 E.00247
;WIDTH:0.518688
G1 X118.064 Y106.957 E.00276
;WIDTH:0.568032
G1 X118.132 Y106.942 E.00304
;WIDTH:0.57061
G1 X121.316 Y108.782 E.16136
G1 X121.351 Y108.832 E.00268
;WIDTH:0.534414
G1 X121.386 Y108.882 E.00249
;WIDTH:0.531942
G1 X121.401 Y109.034 E.00621
;WIDTH:0.565666
G1 X121.415 Y109.185 E.00659
G1 X120.834 Y109.928 E.041
;WIDTH:0.576633
G1 X120.478 Y110.305 E.02301
G1 X119.546 Y111.109 E.05462
;WIDTH:0.574239
G1 X118.872 Y111.54 E.03534
;WIDTH:0.575639
G1 X118.153 Y111.903 E.03568
;WIDTH:0.576592
G1 X117.399 Y112.19 E.0358
;WIDTH:0.577099
G1 X116.621 Y112.398 E.03577
G1 X115.818 Y112.533 E.03617
;WIDTH:0.571305
G1 X115.557 Y112.562 E.01154
;WIDTH:0.561162
G1 X115.502 Y112.513 E.00317
;WIDTH:0.514108
G1 X115.448 Y112.465 E.00283
;WIDTH:0.467054
G1 X115.393 Y112.416 E.0026
;WIDTH:0.419999
G1 X115.355 Y112.294 E.00401
G1 X115.352 Y108.582 E.11639
G1 X115.445 Y108.42 E.00586
;WIDTH:0.457863
G1 X115.541 Y108.373 E.00369
;WIDTH:0.495726
