; generated by PrusaSlicer 2.9.3 on 2025-11-04 at 18:16:13 UTC


;
;
; 

; external perimeters extrusion width = 0.45mm
; perimeters extrusion width = 0.45mm
; infill extrusion width = 0.45mm
; solid infill extrusion width = 0.45mm
; top infill extrusion width = 0.40mm
; first layer extrusion width = 0.42mm

; external perimeters extrusion width = 0.45mm
; perimeters extrusion width = 0.45mm
; infill extrusion width = 0.45mm
; solid infill extrusion width = 0.45mm
; top infill extrusion width = 0.40mm
; first layer extrusion width = 0.42mm

M73 P0 R31
M73 Q0 S32
M201 X1000 Y1000 Z200 E5000 ; sets maximum accelerations, mm/sec^2
M203 X200 Y200 Z12 E120 ; sets maximum feedrates, mm / sec
M204 S1250 T1250 ; sets acceleration (S) and retract acceleration (R), mm/sec^2
M205 X8.00 Y8.00 Z0.40 E4.50 ; sets the jerk limits, mm/sec
M205 S0 T0 ; sets the minimum extruding and travel feed rate, mm/sec

; printing object rim_16x8mm_no_chamfer.stl id:1 copy 0
; stop printing object rim_16x8mm_no_chamfer.stl id:1 copy 0
; printing object rim_16x8mm_no_chamfer.stl id:0 copy 0
; stop printing object rim_16x8mm_no_chamfer.stl id:0 copy 0

;TYPE:Custom
M862.3 P "MK3S" ; printer model check
M862.1 P0.4 ; nozzle diameter check
M115 U3.14.1 ; tell printer latest fw version
G90 ; use absolute coordinates
M83 ; extruder relative mode
M104 S230 ; set extruder temp
M140 S80 ; set bed temp
M190 S80 ; wait for bed temp
M109 S230 ; wait for extruder temp
G28 W ; home all without mesh bed level
G80 X99.1956 Y94.0895 W51.4161 H21.7311 ; mesh bed levelling

G1 Z0.2 F720
G1 Y-3 F1000 ; go outside print area
G92 E0
G1 X60 E9 F1000 ; intro line
G1 X100 E12.5 F1000 ; intro line
M73 Q0 S31

G92 E0
M221 S95

; Don't change E values below. Excessive value can damage the printer.
M907 E430 ; set extruder motor current
G21 ; set units to millimeters
G90 ; use absolute coordinates
M83 ; use relative distances for extrusion

M900 K0.08 ; Filament gcode LA 1.5
M900 K45 ; Filament gcode LA 1.0




M107
;LAYER_CHANGE
;Z:0.2
;HEIGHT:0.2
G1 E-2 F2100
G1 Z.4 F720
G1 X102.727 Y97.355 F10800
G1 Z.2 F720
G1 E2 F2100
M204 S800
;TYPE:Skirt/Brim
;WIDTH:0.42
G1 F1200
G1 X103.533 Y96.672 E.03312
G1 X104.416 Y96.066 E.03358
G1 X105.355 Y95.553 E.03355
G1 X106.341 Y95.137 E.03355
G1 X107.886 Y94.705 E.0503
G1 X109.479 Y94.512 E.05031
G1 X139.923 Y94.279 E.95458
G1 X141.921 Y94.482 E.06297
G1 X143.467 Y94.914 E.05033
G1 X145.042 Y95.638 E.05435
G1 X146.691 Y96.785 E.06298
G1 X147.917 Y98.011 E.05436
G1 X149.064 Y99.66 E.06298
G1 X149.788 Y101.235 E.05435
G1 X150.292 Y103.18 E.063
G1 X150.423 Y104.909 E.05437
G1 X150.22 Y106.907 E.06297
G1 X149.743 Y108.574 E.05437
G1 X148.859 Y110.377 E.06296
G1 X147.917 Y111.676 E.05031
G1 X146.691 Y112.902 E.05436
G1 X145.042 Y114.049 E.06298
G1 X143.467 Y114.773 E.05435
G1 X141.523 Y115.277 E.06297
G1 X139.923 Y115.408 E.05033
G1 X109.968 Y115.632 E.93924
G1 X108.413 Y115.519 E.04888
G1 X107.238 Y115.278 E.03761
G1 X105.842 Y114.801 E.04626
G1 X104.765 Y114.272 E.03762
G1 X103.431 Y113.381 E.0503
G1 X102.247 Y112.298 E.05031
G1 X101.315 Y111.155 E.04624
G1 X100.68 Y110.137 E.03762
G1 X100.019 Y108.675 E.05031
G1 X99.516 Y106.731 E.06296
G1 X99.401 Y105.667 E.03356
G1 X99.394 Y104.596 E.03358
G1 X99.496 Y103.531 E.03355
G1 X99.705 Y102.481 E.03357
G1 X100.019 Y101.458 E.03355
G1 X100.435 Y100.472 E.03355
G1 X100.949 Y99.533 E.03356
G1 X101.555 Y98.651 E.03355
G1 X102.687 Y97.4 E.0529
M204 S1000
G1 X102.965 Y97.651 F10800
M204 S800
G1 F1200
G1 X102.98 Y97.635 E.00069
G1 X103.757 Y96.976 E.03194
G1 X104.607 Y96.391 E.03235
G1 X105.512 Y95.895 E.03236
G1 X106.463 Y95.494 E.03236
G1 X107.952 Y95.076 E.04849
G1 X109.893 Y94.879 E.06117
G1 X139.914 Y94.656 E.94131
G1 X141.456 Y94.782 E.04851
G1 X143.345 Y95.271 E.06118
G1 X144.851 Y95.963 E.05197
G1 X146.452 Y97.077 E.06115
G1 X147.625 Y98.25 E.05201
G1 X148.739 Y99.851 E.06115
G1 X149.431 Y101.357 E.05197
G1 X149.92 Y103.246 E.06118
G1 X150.046 Y104.899 E.05198
G1 X149.849 Y106.84 E.06117
G1 X149.393 Y108.434 E.05198
G1 X148.534 Y110.186 E.06118
G1 X147.625 Y111.438 E.04851
G1 X146.452 Y112.61 E.05199
G1 X144.851 Y113.724 E.06115
G1 X143.345 Y114.417 E.05198
G1 X141.456 Y114.906 E.06118
G1 X139.914 Y115.031 E.04851
G1 X109.965 Y115.255 E.93906
G1 X108.461 Y115.145 E.04728
G1 X107.342 Y114.915 E.03582
G1 X105.982 Y114.451 E.04506
G1 X104.956 Y113.947 E.03584
G1 X103.669 Y113.089 E.0485
G1 X102.527 Y112.046 E.04849
M73 P1 R31
M73 Q1 S31
G1 X101.619 Y110.932 E.04506
G1 X101.014 Y109.962 E.03584
G1 X100.376 Y108.553 E.0485
G1 X99.887 Y106.664 E.06118
G1 X99.777 Y105.638 E.03235
G1 X99.771 Y104.606 E.03236
G1 X99.87 Y103.579 E.03235
G1 X100.072 Y102.567 E.03236
G1 X100.376 Y101.58 E.03238
G1 X100.778 Y100.63 E.03234
G1 X101.274 Y99.725 E.03236
G1 X101.859 Y98.874 E.03238
G1 X102.925 Y97.696 E.04981
M204 S1000
;WIPE_START
G1 F8640
G1 X102.965 Y97.651 E-.0139
G1 X102.98 Y97.635 E-.00506
G1 X103.757 Y96.976 E-.23525
G1 X104.607 Y96.391 E-.23826
G1 X105.512 Y95.895 E-.23829
G1 X106.463 Y95.494 E-.23831
G1 X107.952 Y95.076 E-.3571
G1 X109.893 Y94.879 E-.45048
G1 X110.86 Y94.872 E-.22335
;WIPE_END
G1 Z.4 F720
; printing object rim_16x8mm_no_chamfer.stl id:0 copy 0
G1 X108.882 Y102.374 F10800
G1 Z.2 F720
G1 E2 F2100
M204 S800
;TYPE:External perimeter
;WIDTH:0.419999
G1 F1200
G1 X108.935 Y102.338 E.00201
G1 X109.207 Y102.254 E.00893
G1 X109.909 Y102.159 E.02221
G1 X110.284 Y102.183 E.01178
G1 X110.541 Y102.242 E.00827
;WIDTH:0.466999
G1 X110.695 Y102.254 E.00545
;WIDTH:0.513999
G1 X110.85 Y102.266 E.00609
;WIDTH:0.560998
G1 X111.004 Y102.279 E.00666
G1 X111.098 Y102.362 E.0054
;WIDTH:0.524104
G1 X111.191 Y102.445 E.00499
;WIDTH:0.48721
G1 X111.27 Y102.626 E.0073
;WIDTH:0.453605
G1 X111.349 Y102.807 E.00674
;WIDTH:0.419999
G1 X111.359 Y103.62 E.02549
G1 X111.416 Y103.657 E.00213
G1 X112.21 Y103.667 E.0249
;WIDTH:0.460489
G1 X112.393 Y103.744 E.00689
;WIDTH:0.500978
G1 X112.576 Y103.821 E.00756
;WIDTH:0.541397
G1 X112.648 Y103.889 E.0041
;WIDTH:0.581816
G1 X112.719 Y103.957 E.00441
G1 X112.863 Y104.439 E.02254
;WIDTH:0.58018
G1 X112.919 Y105.079 E.0287
G1 X112.913 Y105.366 E.01282
;WIDTH:0.569315
G1 X112.754 Y106.081 E.03206
G1 X112.69 Y106.155 E.00428
;WIDTH:0.535477
G1 X112.626 Y106.229 E.00401
;WIDTH:0.501639
G1 X112.562 Y106.303 E.00373
;WIDTH:0.467801
G1 X112.21 Y106.466 E.0137
;WIDTH:0.419999
G1 X111.395 Y106.476 E.02556
G1 X111.358 Y106.534 E.00216
G1 X111.349 Y107.327 E.02487
;WIDTH:0.459402
G1 X111.271 Y107.51 E.00689
;WIDTH:0.498804
G1 X111.194 Y107.693 E.00753
;WIDTH:0.534421
G1 X111.097 Y107.777 E.00524
;WIDTH:0.570037
G1 X110.999 Y107.861 E.00566
;WIDTH:0.571629
G1 X110.722 Y107.928 E.01253
G1 X110.589 Y107.937 E.00586
;WIDTH:0.533722
G1 X110.456 Y107.947 E.00544
;WIDTH:0.495814
G1 X110.324 Y107.956 E.00498
;WIDTH:0.457907
G1 X110.191 Y107.966 E.0046
;WIDTH:0.419999
G1 X109.673 Y107.963 E.01624
G1 X109.357 Y107.891 E.01016
;WIDTH:0.467
G1 X109.203 Y107.879 E.00545
;WIDTH:0.514
G1 X109.048 Y107.867 E.00609
;WIDTH:0.561
G1 X108.894 Y107.855 E.00665
G1 X108.799 Y107.773 E.00541
;WIDTH:0.52811
G1 X108.705 Y107.691 E.00503
;WIDTH:0.49522
G1 X108.627 Y107.509 E.00745
;WIDTH:0.45761
G1 X108.549 Y107.326 E.00686
;WIDTH:0.419999
G1 X108.539 Y106.513 E.02549
G1 X108.482 Y106.476 E.00213
G1 X107.688 Y106.466 E.0249
;WIDTH:0.467798
G1 X107.335 Y106.303 E.01374
;WIDTH:0.501637
G1 X107.271 Y106.229 E.00373
;WIDTH:0.535476
G1 X107.208 Y106.155 E.00398
;WIDTH:0.569315
G1 X107.144 Y106.081 E.00428
G1 X106.981 Y105.367 E.03206
;WIDTH:0.582039
G1 X106.989 Y104.848 E.02327
G1 X107.033 Y104.448 E.01804
;WIDTH:0.581818
G1 X107.178 Y103.957 E.02294
G1 X107.25 Y103.889 E.00444
;WIDTH:0.541403
G1 X107.322 Y103.821 E.0041
;WIDTH:0.500987
G1 X107.505 Y103.744 E.00756
;WIDTH:0.460493
G1 X107.688 Y103.667 E.00689
;WIDTH:0.419999
G1 X108.503 Y103.657 E.02556
G1 X108.54 Y103.599 E.00216
G1 X108.549 Y102.806 E.02487
G1 X108.695 Y102.5 E.01063
G1 X108.832 Y102.408 E.00517
M204 S1000
;WIPE_START
G1 F8640
G1 X108.882 Y102.374 E-.01396
G1 X108.935 Y102.338 E-.01479
G1 X109.207 Y102.254 E-.06573
G1 X109.909 Y102.159 E-.16357
G1 X110.284 Y102.183 E-.08677
G1 X110.541 Y102.242 E-.06089
G1 X110.695 Y102.254 E-.03567
G1 X110.85 Y102.266 E-.0359
G1 X111.004 Y102.279 E-.03569
G1 X111.098 Y102.362 E-.02896
G1 X111.191 Y102.445 E-.02878
G1 X111.27 Y102.626 E-.0456
G1 X111.349 Y102.807 E-.0456
G1 X111.359 Y103.62 E-.18774
G1 X111.416 Y103.657 E-.01569
G1 X112.21 Y103.667 E-.18335
G1 X112.393 Y103.744 E-.04584
G1 X112.576 Y103.821 E-.04584
G1 X112.648 Y103.889 E-.02287
G1 X112.719 Y103.957 E-.0227
G1 X112.863 Y104.439 E-.11616
G1 X112.919 Y105.079 E-.14834
G1 X112.913 Y105.366 E-.06628
G1 X112.754 Y106.081 E-.16913
G1 X112.69 Y106.155 E-.02259
G1 X112.626 Y106.229 E-.02259
G1 X112.562 Y106.303 E-.02259
G1 X112.21 Y106.466 E-.08957
G1 X111.531 Y106.474 E-.15681
;WIPE_END
G1 Z.4 F720
G1 X110.34 Y98.255 F10800
G1 Z.2 F720
G1 E2 F2100
M204 S800
;WIDTH:0.465843
G1 F1200
G1 X110.346 Y98.244 E.00044
;WIDTH:0.511687
G1 X110.404 Y98.133 E.00488
;WIDTH:0.559125
G1 X110.518 Y98.101 E.00508
;WIDTH:0.57428
G1 X111.371 Y98.232 E.03813
;WIDTH:0.582872
G1 X112.034 Y98.418 E.03092
G1 X112.601 Y98.606 E.02682
;WIDTH:0.570381
G1 X113.315 Y98.946 E.03468
;WIDTH:0.582261
G1 X113.934 Y99.35 E.03315
G1 X114.482 Y99.766 E.03085
;WIDTH:0.578744
G1 X115.015 Y100.271 E.03271
;WIDTH:0.577765
G1 X115.468 Y100.798 E.03091
;WIDTH:0.576547
G1 X115.73 Y101.147 E.01936
;WIDTH:0.570411
G1 X115.62 Y101.488 E.01572
G1 X113.069 Y102.962 E.12922
;WIDTH:0.568017
G1 X113.017 Y102.963 E.00227
;WIDTH:0.535571
G1 X112.964 Y102.963 E.00217
;WIDTH:0.503124
G1 X112.884 Y102.915 E.00357
;WIDTH:0.461562
G1 X112.803 Y102.867 E.00328
;WIDTH:0.419999
G1 X112.301 Y102.356 E.02246
G1 X111.818 Y102.02 E.01845
;WIDTH:0.438834
G1 X111.628 Y101.91 E.00723
;WIDTH:0.480802
G1 X111.459 Y101.863 E.00639
;WIDTH:0.522769
G1 X111.29 Y101.815 E.00701
;WIDTH:0.564736
G1 X111.121 Y101.768 E.00761
G1 X110.978 Y101.7 E.00687
;WIDTH:0.516491
G1 X110.835 Y101.632 E.00624
;WIDTH:0.468245
G1 X110.692 Y101.564 E.0056
;WIDTH:0.419999
G1 X110.384 Y101.489 E.00994
G1 X110.323 Y101.436 E.00253
G1 X110.285 Y101.324 E.00371
G1 X110.288 Y98.355 E.09309
;WIDTH:0.465843
G1 X110.313 Y98.308 E.00187
M204 S1000
;WIPE_START
G1 F8640
G1 X110.34 Y98.255 E-.01373
G1 X110.346 Y98.244 E-.00289
G1 X110.404 Y98.133 E-.02892
G1 X110.518 Y98.101 E-.02734
G1 X111.371 Y98.232 E-.19927
G1 X112.034 Y98.418 E-.159
G1 X112.601 Y98.606 E-.13793
G1 X113.315 Y98.946 E-.1826
G1 X113.934 Y99.35 E-.17068
G1 X114.482 Y99.766 E-.15886
G1 X115.015 Y100.271 E-.16954
G1 X115.468 Y100.798 E-.16046
G1 X115.73 Y101.147 E-.10077
G1 X115.62 Y101.488 E-.08273
G1 X114.1 Y102.366 E-.40528
;WIPE_END
G1 Z.4 F720
G1 X104.489 Y100.713 F10800
G1 Z.2 F720
G1 E2 F2100
M204 S800
;WIDTH:0.567568
G1 F1200
G1 X105 Y100.139 E.03353
;WIDTH:0.568619
G1 X105.583 Y99.615 E.03426
;WIDTH:0.570096
G1 X106.22 Y99.16 E.03431
;WIDTH:0.571977
G1 X106.885 Y98.79 E.03348
;WIDTH:0.573686
G1 X107.534 Y98.516 E.03109
;WIDTH:0.582906
G1 X108.202 Y98.321 E.03125
G1 X108.757 Y98.185 E.02566
;WIDTH:0.568689
G1 X109.385 Y98.098 E.02772
;WIDTH:0.562351
G1 X109.436 Y98.121 E.00242
;WIDTH:0.524312
G1 X109.487 Y98.144 E.00224
;WIDTH:0.486273
G1 X109.549 Y98.25 E.00453
;WIDTH:0.453136
G1 X109.61 Y98.355 E.00414
;WIDTH:0.419999
G1 X109.612 Y101.324 E.09309
G1 X109.558 Y101.456 E.00447
G1 X108.55 Y101.769 E.03309
G1 X108.373 Y101.85 E.0061
G1 X107.913 Y102.136 E.01698
G1 X107.559 Y102.394 E.01373
G1 X107.095 Y102.867 E.02077
;WIDTH:0.457506
G1 X107.034 Y102.894 E.0023
;WIDTH:0.495013
G1 X106.972 Y102.92 E.00253
;WIDTH:0.53252
G1 X106.911 Y102.947 E.00272
;WIDTH:0.570027
G1 X106.85 Y102.974 E.00292
G1 X106.829 Y102.962 E.00106
;WIDTH:0.570406
G1 X104.278 Y101.488 E.12922
;WIDTH:0.571931
G1 X104.161 Y101.158 E.0154
G1 X104.453 Y100.761 E.02168
M204 S1000
;WIPE_START
G1 F8640
G1 X104.489 Y100.713 E-.01385
G1 X105 Y100.139 E-.17745
G1 X105.583 Y99.615 E-.181
G1 X106.22 Y99.16 E-.18075
G1 X106.885 Y98.79 E-.17572
G1 X107.534 Y98.516 E-.16266
G1 X108.202 Y98.321 E-.16068
G1 X108.757 Y98.185 E-.13194
G1 X109.385 Y98.098 E-.14639
G1 X109.436 Y98.121 E-.01292
G1 X109.487 Y98.144 E-.01292
G1 X109.549 Y98.25 E-.02836
G1 X109.61 Y98.355 E-.02804
G1 X109.612 Y100.898 E-.58732
;WIPE_END
G1 Z.4 F720
G1 X104.497 Y109.414 F10800
G1 Z.2 F720
G1 E2 F2100
M204 S800
;WIDTH:0.576549
G1 F1200
G1 X104.429 Y109.335 E.00463
G1 X104.192 Y109.025 E.01731
;WIDTH:0.564332
G1 X104.263 Y108.67 E.0157
;WIDTH:0.570393
G1 X104.301 Y108.632 E.00236
G1 X106.829 Y107.171 E.12806
;WIDTH:0.568015
G1 X106.902 Y107.191 E.0033
;WIDTH:0.518677
G1 X106.975 Y107.212 E.003
;WIDTH:0.469338
G1 X107.048 Y107.232 E.00268
;WIDTH:0.419999
G1 X107.642 Y107.809 E.02596
G1 X108.08 Y108.113 E.01672
;WIDTH:0.446218
G1 X108.271 Y108.22 E.00734
;WIDTH:0.485725
G1 X108.44 Y108.268 E.00647
;WIDTH:0.525232
G1 X108.609 Y108.317 E.00706
;WIDTH:0.564738
G1 X108.777 Y108.365 E.00758
G1 X108.92 Y108.433 E.00687
;WIDTH:0.516492
G1 X109.063 Y108.501 E.00624
;WIDTH:0.468246
G1 X109.206 Y108.569 E.0056
;WIDTH:0.419999
G1 X109.52 Y108.647 E.01014
G1 X109.612 Y108.81 E.00587
G1 X109.61 Y111.778 E.09306
;WIDTH:0.453687
G1 X109.571 Y111.854 E.00292
;WIDTH:0.487374
G1 X109.532 Y111.93 E.00316
;WIDTH:0.521061
G1 X109.493 Y112.006 E.0034
;WIDTH:0.562352
G1 X109.385 Y112.035 E.00483
;WIDTH:0.567145
G1 X108.786 Y111.953 E.02635
G1 X108.03 Y111.78 E.03381
;WIDTH:0.568836
G1 X107.29 Y111.525 E.03423
;WIDTH:0.570382
G1 X106.583 Y111.187 E.03437
;WIDTH:0.572294
G1 X105.949 Y110.792 E.03288
;WIDTH:0.57393
G1 X105.394 Y110.357 E.03114
;WIDTH:0.575142
G1 X104.886 Y109.87 E.03114
;WIDTH:0.576549
G1 X104.536 Y109.46 E.02392
M204 S1000
;WIPE_START
G1 F8640
G1 X104.497 Y109.414 E-.01393
G1 X104.429 Y109.335 E-.02407
G1 X104.192 Y109.025 E-.0901
G1 X104.263 Y108.67 E-.08359
G1 X104.301 Y108.632 E-.01241
G1 X106.829 Y107.171 E-.67419
G1 X106.902 Y107.191 E-.01748
G1 X106.975 Y107.212 E-.01754
G1 X107.048 Y107.232 E-.01748
G1 X107.642 Y107.809 E-.19121
G1 X108.08 Y108.113 E-.12311
G1 X108.271 Y108.22 E-.05055
G1 X108.44 Y108.268 E-.04057
G1 X108.609 Y108.317 E-.04063
G1 X108.777 Y108.365 E-.04034
G1 X108.92 Y108.433 E-.03656
G1 X109.063 Y108.501 E-.03656
G1 X109.206 Y108.569 E-.03656
G1 X109.52 Y108.647 E-.07471
G1 X109.612 Y108.81 E-.04322
G1 X109.611 Y110.262 E-.33519
;WIPE_END
G1 Z.4 F720
G1 X115.402 Y109.415 F10800
G1 Z.2 F720
G1 E2 F2100
M204 S800
;WIDTH:0.574077
G1 F1200
M73 P1 R30
G1 X115.239 Y109.622 E.01164
;WIDTH:0.575141
G1 X114.753 Y110.13 E.03111
;WIDTH:0.575921
G1 X114.217 Y110.587 E.03122
;WIDTH:0.576278
G1 X113.639 Y110.989 E.03122
G1 X113.024 Y111.33 E.03119
G1 X112.377 Y111.609 E.03125
;WIDTH:0.575708
G1 X111.896 Y111.773 E.02251
;WIDTH:0.568417
G1 X111.134 Y111.949 E.03417
G1 X110.513 Y112.035 E.02739
;WIDTH:0.562351
G1 X110.462 Y112.012 E.00242
;WIDTH:0.524313
G1 X110.41 Y111.989 E.00228
;WIDTH:0.486275
G1 X110.35 Y111.892 E.0042
;WIDTH:0.453137
G1 X110.289 Y111.794 E.00394
;WIDTH:0.419999
G1 X110.285 Y108.81 E.09356
G1 X110.378 Y108.647 E.00588
;WIDTH:0.457907
G1 X110.495 Y108.596 E.0044
;WIDTH:0.495814
G1 X110.612 Y108.545 E.00481
;WIDTH:0.533722
G1 X110.729 Y108.493 E.00523
;WIDTH:0.571629
G1 X111.177 Y108.344 E.02076
;WIDTH:0.535217
G1 X111.508 Y108.247 E.01412
;WIDTH:0.498804
G1 X111.66 Y108.186 E.00621
;WIDTH:0.459402
G1 X111.811 Y108.126 E.00563
;WIDTH:0.419999
G1 X112.1 Y107.94 E.01078
G1 X112.49 Y107.602 E.01618
G1 X112.849 Y107.231 E.01619
;WIDTH:0.469338
G1 X112.922 Y107.211 E.00268
;WIDTH:0.518676
G1 X112.996 Y107.191 E.00303
;WIDTH:0.568014
G1 X113.069 Y107.171 E.0033
;WIDTH:0.570386
G1 X115.597 Y108.632 E.12806
G1 X115.633 Y108.682 E.0027
;WIDTH:0.534558
G1 X115.669 Y108.732 E.00252
;WIDTH:0.534225
G1 X115.681 Y108.889 E.00643
;WIDTH:0.56972
G1 X115.694 Y109.045 E.00686
;WIDTH:0.574077
G1 X115.439 Y109.368 E.01818
M204 S1000
;WIPE_START
G1 F8640
G1 X115.402 Y109.415 E-.01381
G1 X115.239 Y109.622 E-.06084
G1 X114.753 Y110.13 E-.16233
G1 X114.217 Y110.587 E-.16264
G1 X113.639 Y110.989 E-.16257
G1 X113.024 Y111.33 E-.16237
