; generated by PrusaSlicer 2.9.3 on 2025-11-06 at 13:49:59 UTC


;
;
; 

; external perimeters extrusion width = 0.45mm
; perimeters extrusion width = 0.45mm
; infill extrusion width = 0.45mm
; solid infill extrusion width = 0.45mm
; top infill extrusion width = 0.40mm
; first layer extrusion width = 0.42mm

M73 P0 R38
M73 Q0 S38
M201 X1000 Y1000 Z200 E5000 ; sets maximum accelerations, mm/sec^2
M203 X200 Y200 Z12 E120 ; sets maximum feedrates, mm / sec
M204 S1250 T1250 ; sets acceleration (S) and retract acceleration (R), mm/sec^2
M205 X8.00 Y8.00 Z0.40 E4.50 ; sets the jerk limits, mm/sec
M205 S0 T0 ; sets the minimum extruding and travel feed rate, mm/sec

; printing object tire_17.5-30mm_treaded.stl id:0 copy 0
; stop printing object tire_17.5-30mm_treaded.stl id:0 copy 0

;TYPE:Custom
M862.3 P "MK3S" ; printer model check
M862.1 P0.4 ; nozzle diameter check
M115 U3.14.1 ; tell printer latest fw version
G90 ; use absolute coordinates
M83 ; extruder relative mode
M104 S238 ; set extruder temp
M140 S50 ; set bed temp
M190 S50 ; wait for bed temp
M109 S238 ; wait for extruder temp
G28 W ; home all without mesh bed level
G80 X108.751 Y88.7551 W32.4981 H32.4898 ; mesh bed levelling

G1 Z0.2 F720
G1 Y-3 F1000 ; go outside print area
G92 E0
G1 X60 E9 F1000 ; intro line
G1 X100 E12.5 F1000 ; intro line

G92 E0
M221 S95

; Don't change E values below. Excessive value can damage the printer.
M907 E430 ; set extruder motor current
G21 ; set units to millimeters
G90 ; use absolute coordinates
M83 ; use relative distances for extrusion
M900 K0 ; Filament gcode
M107
;LAYER_CHANGE
;Z:0.2
;HEIGHT:0.2
G1 E-2.5 F3600
G1 Z.2 F720
G1 X112.936 Y94.392 F10800
G1 Z.2 F720
G1 E2.5 F1500
M204 S800
;TYPE:Skirt/Brim
;WIDTH:0.42
G1 F954.706
G1 X114.173 Y93.132 E.06644
G1 X115.192 Y92.277 E.05005
G1 X116.648 Y91.277 E.06646
G1 X118.205 Y90.443 E.06646
G1 X119.978 Y89.741 E.07175
G1 X120.984 Y89.445 E.03946
G1 X122.716 Y89.098 E.06646
G1 X124.335 Y88.949 E.06117
G1 X125.665 Y88.949 E.05004
G1 X127.284 Y89.098 E.06117
G1 X129.016 Y89.445 E.06646
G1 X130.022 Y89.741 E.03946
G1 X131.795 Y90.443 E.07175
G1 X133.352 Y91.277 E.06646
G1 X134.808 Y92.277 E.06646
G1 X135.827 Y93.132 E.05005
G1 X136.971 Y94.287 E.06117
G1 X138.075 Y95.665 E.06643
G1 X139.233 Y97.551 E.08327
G1 X139.965 Y99.158 E.06644
G1 X140.516 Y100.836 E.06645
G1 X140.899 Y102.704 E.07175
G1 X141.016 Y103.747 E.03949
G1 X141.057 Y105.512 E.06643
G1 X140.923 Y107.132 E.06116
G1 X140.692 Y108.443 E.05009
G1 X140.219 Y110.144 E.06643
G1 X139.562 Y111.784 E.06647
G1 X138.655 Y113.461 E.07173
G1 X138.075 Y114.335 E.03947
G1 X137.064 Y115.608 E.06116
G1 X135.827 Y116.868 E.06644
G1 X134.808 Y117.723 E.05005
G1 X133.472 Y118.649 E.06116
G1 X131.922 Y119.497 E.06648
G1 X130.961 Y119.917 E.03946
G1 X129.152 Y120.519 E.07173
G1 X127.423 Y120.881 E.06646
G1 X125.665 Y121.051 E.06645
G1 X124.335 Y121.051 E.05004
G1 X122.716 Y120.902 E.06117
G1 X120.984 Y120.555 E.06646
G1 X119.978 Y120.259 E.03946
G1 X118.205 Y119.557 E.07175
G1 X116.648 Y118.723 E.06646
G1 X115.192 Y117.723 E.06646
G1 X114.173 Y116.868 E.05005
G1 X113.029 Y115.713 E.06117
G1 X111.925 Y114.335 E.06643
G1 X110.767 Y112.449 E.08327
G1 X110.035 Y110.842 E.06644
G1 X109.484 Y109.164 E.06645
G1 X109.101 Y107.296 E.07175
G1 X108.984 Y106.253 E.03949
G1 X108.943 Y104.488 E.06643
G1 X109.077 Y102.868 E.06116
G1 X109.308 Y101.558 E.05005
G1 X109.737 Y99.99 E.06116
G1 X110.379 Y98.344 E.06648
G1 X110.845 Y97.405 E.03944
G1 X111.925 Y95.665 E.07705
G1 X112.898 Y94.439 E.05889
M204 S1000
G1 X113.194 Y94.673 F10800
M204 S800
G1 F954.706
G1 X113.224 Y94.635 E.00182
G1 X114.433 Y93.405 E.06489
G1 X115.416 Y92.58 E.04829
G1 X116.837 Y91.603 E.06488
G1 X118.357 Y90.788 E.06489
G1 X120.107 Y90.095 E.07082
G1 X121.07 Y89.812 E.03777
G1 X122.761 Y89.473 E.06489
G1 X124.359 Y89.325 E.06038
G1 X125.641 Y89.325 E.04824
G1 X127.239 Y89.473 E.06038
G1 X128.93 Y89.812 E.06489
G1 X129.893 Y90.095 E.03777
G1 X131.643 Y90.788 E.07082
G1 X133.163 Y91.603 E.06489
G1 X134.584 Y92.58 E.06488
G1 X135.567 Y93.405 E.04829
G1 X136.696 Y94.545 E.06037
G1 X137.773 Y95.892 E.06489
G1 X138.895 Y97.718 E.08064
G1 X139.611 Y99.287 E.06489
G1 X140.149 Y100.926 E.0649
G1 X140.528 Y102.77 E.07083
G1 X140.639 Y103.767 E.03774
G1 X140.68 Y105.491 E.06488
G1 X140.548 Y107.091 E.0604
G1 X140.325 Y108.353 E.04822
G1 X139.865 Y110.015 E.06488
G1 X139.275 Y111.507 E.06037
G1 X138.829 Y112.407 E.03779
G1 X137.773 Y114.108 E.07533
G1 X136.696 Y115.455 E.06489
G1 X135.567 Y116.595 E.06037
G1 X134.584 Y117.42 E.04829
G1 X133.266 Y118.334 E.06035
G1 X131.752 Y119.16 E.06489
G1 X130.832 Y119.563 E.03779
G1 X129.046 Y120.157 E.07082
G1 X127.358 Y120.51 E.06489
G1 X125.641 Y120.675 E.0649
G1 X124.359 Y120.675 E.04824
G1 X122.642 Y120.51 E.0649
G1 X121.07 Y120.188 E.06037
G1 X119.168 Y119.563 E.07533
G1 X118.248 Y119.16 E.03779
G1 X116.837 Y118.397 E.06035
G1 X115.416 Y117.42 E.06488
G1 X114.433 Y116.595 E.04829
G1 X113.304 Y115.455 E.06037
G1 X112.227 Y114.108 E.06489
G1 X111.105 Y112.282 E.08064
G1 X110.389 Y110.713 E.06489
G1 X109.851 Y109.074 E.0649
G1 X109.472 Y107.23 E.07083
G1 X109.361 Y106.233 E.03774
G1 X109.32 Y104.509 E.06488
G1 X109.452 Y102.909 E.0604
G1 X109.675 Y101.647 E.04822
G1 X110.135 Y99.985 E.06488
G1 X110.776 Y98.383 E.06492
G1 X111.671 Y96.727 E.07082
G1 X112.227 Y95.892 E.03774
G1 X113.156 Y94.72 E.05627
M204 S1000
G1 E-2.5 F3600
; printing object tire_17.5-30mm_treaded.stl id:0 copy 0
G1 X120.957 Y113.625 F10800
G1 E2.5 F1500
M204 S800
;TYPE:Perimeter
;WIDTH:0.419999
G1 F954.707
G1 X120.527 Y113.417 E.01797
G1 X120.007 Y113.118 E.02257
G1 X119.487 Y112.775 E.02344
G1 X118.986 Y112.396 E.02364
G1 X118.593 Y112.064 E.01936
G1 X118.092 Y111.574 E.02637
G1 X117.606 Y111.024 E.02762
G1 X117.171 Y110.447 E.02719
G1 X116.787 Y109.846 E.02683
G1 X116.449 Y109.221 E.02673
G1 X116.151 Y108.554 E.02749
G1 X115.947 Y107.988 E.02264
G1 X115.766 Y107.363 E.02448
G1 X115.637 Y106.779 E.0225
G1 X115.531 Y106.075 E.02679
G1 X115.476 Y105.352 E.02728
G1 X115.472 Y104.752 E.02258
G1 X115.504 Y104.151 E.02264
G1 X115.569 Y103.583 E.02151
G1 X115.701 Y102.886 E.02669
G1 X115.89 Y102.177 E.02761
G1 X116.13 Y101.496 E.02717
G1 X116.421 Y100.835 E.02717
G1 X116.692 Y100.326 E.0217
G1 X117.063 Y99.72 E.02673
G1 X117.491 Y99.127 E.02752
G1 X117.876 Y98.669 E.02251
G1 X118.31 Y98.212 E.02371
G1 X118.766 Y97.79 E.02338
G1 X119.321 Y97.345 E.02677
G1 X119.738 Y97.046 E.01931
G1 X120.318 Y96.692 E.02557
G1 X120.959 Y96.361 E.02714
G1 X121.624 Y96.081 E.02715
G1 X122.308 Y95.851 E.02715
G1 X123.008 Y95.674 E.02717
G1 X123.634 Y95.564 E.02391
G1 X124.437 Y95.48 E.03038
G1 X125.146 Y95.465 E.02668
G1 X125.829 Y95.501 E.02573
G1 X126.437 Y95.576 E.02305
G1 X126.999 Y95.681 E.02151
G1 X127.726 Y95.867 E.02823
G1 X128.671 Y96.198 E.03767
G1 X129.327 Y96.501 E.02719
G1 X129.957 Y96.853 E.02715
G1 X130.559 Y97.251 E.02715
G1 X131.051 Y97.632 E.02341
G1 X131.582 Y98.103 E.02671
G1 X132.091 Y98.627 E.02749
G1 X132.476 Y99.088 E.0226
G1 X132.972 Y99.772 E.03179
G1 X133.395 Y100.475 E.03087
G1 X133.62 Y100.932 E.01917
G1 X133.826 Y101.401 E.01927
G1 X134.036 Y101.963 E.02257
G1 X134.198 Y102.482 E.02046
G1 X134.363 Y103.185 E.02717
G1 X134.473 Y103.898 E.02714
G1 X134.529 Y104.618 E.02717
G1 X134.531 Y105.299 E.02562
G1 X134.478 Y106.059 E.02866
G1 X134.371 Y106.773 E.02716
M73 Q1 S38
G1 X134.21 Y107.475 E.0271
G1 X134.03 Y108.057 E.02292
G1 X133.828 Y108.592 E.02152
G1 X133.519 Y109.275 E.02821
G1 X133.052 Y110.11 E.036
G1 X132.643 Y110.705 E.02717
G1 X132.189 Y111.266 E.02715
G1 X131.695 Y111.792 E.02715
M73 P1 R38
G1 X131.202 Y112.243 E.02514
G1 X130.645 Y112.684 E.02673
G1 X130.041 Y113.094 E.02747
G1 X129.52 Y113.393 E.0226
G1 X128.76 Y113.762 E.03179
G1 X128.036 Y114.041 E.02919
G1 X127.497 Y114.2 E.02114
G1 X127.006 Y114.317 E.01899
G1 X126.416 Y114.426 E.02257
G1 X125.88 Y114.496 E.02034
G1 X125.202 Y114.535 E.02555
G1 X124.48 Y114.523 E.02717
G1 X123.762 Y114.456 E.02713
G1 X123.063 Y114.338 E.02667
G1 X122.387 Y114.171 E.0262
G1 X121.844 Y113.994 E.02149
G1 X121.184 Y113.734 E.02669
G1 X121.011 Y113.651 E.00722
M204 S1000
G1 X121.128 Y113.289 F10800
M204 S800
;TYPE:External perimeter
G1 F954.707
G1 X120.699 Y113.082 E.01792
G1 X120.204 Y112.797 E.02149
G1 X119.707 Y112.469 E.0224
G1 X119.229 Y112.107 E.02256
G1 X118.84 Y111.779 E.01914
G1 X118.356 Y111.305 E.02549
G1 X117.89 Y110.775 E.02655
G1 X117.473 Y110.22 E.02612
G1 X117.105 Y109.644 E.02572
G1 X116.781 Y109.043 E.02569
G1 X116.496 Y108.402 E.02639
G1 X116.303 Y107.863 E.02154
G1 X116.13 Y107.264 E.02346
G1 X116.007 Y106.708 E.02143
G1 X115.905 Y106.032 E.02572
G1 X115.853 Y105.338 E.02619
G1 X115.849 Y104.766 E.02152
G1 X115.879 Y104.193 E.02159
G1 X115.944 Y103.626 E.02147
G1 X116.071 Y102.957 E.02562
G1 X116.255 Y102.276 E.02654
G1 X116.486 Y101.622 E.0261
G1 X116.766 Y100.987 E.02611
G1 X117.024 Y100.504 E.0206
G1 X117.381 Y99.923 E.02566
G1 X117.793 Y99.353 E.02646
G1 X118.16 Y98.917 E.02144
G1 X118.574 Y98.481 E.02262
G1 X119.009 Y98.078 E.02231
G1 X119.542 Y97.651 E.0257
G1 X120.115 Y97.258 E.02614
G1 X120.606 Y96.966 E.02149
G1 X121.131 Y96.697 E.0222
G1 X121.77 Y96.428 E.02609
G1 X122.428 Y96.209 E.02609
G1 X123.1 Y96.039 E.02608
G1 X123.698 Y95.936 E.02283
G1 X124.473 Y95.855 E.02932
G1 X125.153 Y95.842 E.02559
G1 X125.808 Y95.878 E.02468
G1 X126.388 Y95.95 E.02199
G1 X126.921 Y96.05 E.0204
G1 X127.621 Y96.229 E.02719
G1 X128.539 Y96.551 E.0366
G1 X129.168 Y96.843 E.02609
G1 X129.773 Y97.182 E.02609
G1 X130.35 Y97.565 E.02606
G1 X130.819 Y97.93 E.02236
G1 X131.329 Y98.382 E.02564
G1 X131.817 Y98.886 E.0264
G1 X132.183 Y99.325 E.0215
G1 X132.662 Y99.986 E.03071
G1 X133.07 Y100.666 E.02984
G1 X133.375 Y101.289 E.0261
G1 X133.631 Y101.933 E.02607
G1 X133.839 Y102.594 E.02607
G1 X133.995 Y103.27 E.0261
G1 X134.1 Y103.955 E.02607
G1 X134.153 Y104.646 E.02608
G1 X134.154 Y105.299 E.02457
G1 X134.102 Y106.031 E.02761
G1 X133.998 Y106.716 E.02607
G1 X133.843 Y107.39 E.02602
G1 X133.67 Y107.945 E.02187
G1 X133.478 Y108.453 E.02043
G1 X133.18 Y109.11 E.02714
G1 X132.727 Y109.92 E.03492
G1 X132.333 Y110.49 E.02607
G1 X131.896 Y111.029 E.02611
G1 X131.421 Y111.533 E.02606
G1 X130.948 Y111.964 E.02408
G1 X130.414 Y112.386 E.02561
G1 X129.832 Y112.78 E.02644
G1 X129.335 Y113.064 E.02154
G1 X128.601 Y113.42 E.03069
G1 X127.903 Y113.688 E.02813
G1 X127.392 Y113.838 E.02004
G1 X126.805 Y113.974 E.02267
G1 X126.27 Y114.065 E.02042
G1 X125.551 Y114.137 E.02719
G1 X124.487 Y114.146 E.04003
G1 X123.797 Y114.081 E.02608
G1 X123.127 Y113.966 E.02558
G1 X122.479 Y113.805 E.02512
G1 X121.963 Y113.637 E.02042
G1 X121.329 Y113.387 E.02564
G1 X121.183 Y113.316 E.00611
M204 S1000
G1 X120.822 Y113.141 F10800
G1 E-2.5 F3600
G1 X134.963 Y98.028 F10800
G1 E2.5 F1500
M204 S800
;TYPE:Perimeter
G1 F954.707
G1 X134.932 Y98.197 E.00646
G1 X135.012 Y98.444 E.00977
G1 X135.284 Y98.889 E.01962
G1 X135.687 Y99.611 E.03111
G1 X135.855 Y99.799 E.00949
G1 X136.066 Y99.812 E.00795
G1 X136.381 Y100.506 E.02868
G1 X136.609 Y101.133 E.0251
G1 X136.801 Y101.765 E.02485
G1 X136.659 Y102.005 E.01049
G1 X136.651 Y102.264 E.00975
G1 X136.874 Y103.522 E.04807
G1 X136.967 Y103.806 E.01124
G1 X137.173 Y103.91 E.00868
G1 X137.232 Y104.722 E.03063
G1 X137.232 Y105.336 E.0231
G1 X137.195 Y105.996 E.02487
G1 X136.981 Y106.173 E.01045
G1 X136.884 Y106.414 E.00977
G1 X136.806 Y106.93 E.01964
G1 X136.65 Y107.741 E.03107
G1 X136.659 Y107.993 E.00949
G1 X136.812 Y108.139 E.00796
G1 X136.607 Y108.873 E.02867
G1 X136.379 Y109.5 E.0251
G1 X136.119 Y110.107 E.02485
G1 X135.857 Y110.2 E.01046
G1 X135.684 Y110.393 E.00975
G1 X135.07 Y111.461 E.04635
G1 X134.936 Y111.765 E.0125
G1 X135.026 Y111.989 E.00908
G1 X134.582 Y112.61 E.02872
G1 X134.154 Y113.12 E.02505
G1 X133.702 Y113.602 E.02486
G1 X133.424 Y113.599 E.01046
G1 X133.195 Y113.722 E.00978
G1 X132.804 Y114.067 E.01962
G1 X132.162 Y114.589 E.03113
G1 X132.007 Y114.787 E.00946
G1 X132.031 Y114.997 E.00795
G1 X131.402 Y115.428 E.02869
G1 X130.825 Y115.761 E.02507
G1 X130.235 Y116.06 E.02489
G1 X129.975 Y115.962 E.01045
G1 X129.718 Y115.999 E.00977
G1 X129.232 Y116.189 E.01963
G1 X128.451 Y116.46 E.0311
G1 X128.237 Y116.594 E.0095
G1 X128.187 Y116.799 E.00794
G1 X127.449 Y116.989 E.02867
G1 X126.793 Y117.104 E.02506
G1 X126.136 Y117.183 E.0249
G1 X125.925 Y117.002 E.01046
G1 X125.671 Y116.949 E.00976
G1 X124.439 Y116.951 E.04635
G1 X124.111 Y116.987 E.01242
G1 X123.96 Y117.177 E.00913
G1 X123.201 Y117.103 E.02869
G1 X122.545 Y116.987 E.02506
G1 X121.901 Y116.837 E.02488
G1 X121.765 Y116.595 E.01044
G1 X121.544 Y116.458 E.00978
G1 X121.049 Y116.292 E.01964
G1 X120.277 Y115.997 E.0311
G1 X120.028 Y115.962 E.00946
G1 X119.858 Y116.087 E.00794
G1 X119.17 Y115.758 E.02869
G1 X118.593 Y115.425 E.02507
G1 X118.039 Y115.063 E.0249
G1 X117.994 Y114.789 E.01045
G1 X117.834 Y114.585 E.00975
G1 X117.025 Y113.912 E.03959
G1 X116.63 Y113.617 E.01855
G1 X116.376 Y113.66 E.00969
G1 X115.842 Y113.115 E.02871
G1 X115.414 Y112.605 E.02505
G1 X115.017 Y112.076 E.02489
G1 X115.068 Y111.803 E.01045
G1 X114.988 Y111.556 E.00977
G1 X114.716 Y111.111 E.01962
G1 X114.313 Y110.389 E.03111
G1 X114.145 Y110.201 E.00949
G1 X113.934 Y110.188 E.00795
G1 X113.619 Y109.494 E.02868
G1 X113.391 Y108.867 E.0251
G1 X113.199 Y108.235 E.02485
G1 X113.341 Y107.996 E.01046
G1 X113.349 Y107.736 E.00979
G1 X113.246 Y107.225 E.01961
G1 X113.115 Y106.409 E.0311
G1 X113.02 Y106.175 E.0095
G1 X112.827 Y106.09 E.00793
G1 X112.768 Y105.33 E.02868
G1 X112.768 Y104.664 E.02506
G1 X112.805 Y104.004 E.02487
G1 X113.019 Y103.827 E.01045
G1 X113.116 Y103.586 E.00977
G1 X113.317 Y102.429 E.04418
G1 X113.352 Y102.057 E.01406
G1 X113.188 Y101.861 E.00962
G1 X113.393 Y101.127 E.02867
G1 X113.621 Y100.5 E.0251
G1 X113.881 Y99.893 E.02485
G1 X114.143 Y99.8 E.01046
G1 X114.316 Y99.607 E.00975
G1 X114.566 Y99.149 E.01963
G1 X114.99 Y98.439 E.03111
G1 X115.068 Y98.2 E.00946
G1 X114.974 Y98.011 E.00794
G1 X115.418 Y97.39 E.02872
G1 X115.846 Y96.88 E.02505
G1 X116.298 Y96.398 E.02486
G1 X116.576 Y96.401 E.01046
G1 X116.805 Y96.278 E.00978
G1 X117.196 Y95.933 E.01962
G1 X117.838 Y95.411 E.03113
G1 X117.993 Y95.213 E.00946
G1 X117.969 Y95.003 E.00795
G1 X118.598 Y94.572 E.02869
G1 X119.175 Y94.239 E.02507
G1 X119.765 Y93.94 E.02489
G1 X120.025 Y94.038 E.01045
G1 X120.282 Y94.001 E.00977
G1 X120.768 Y93.811 E.01963
G1 X121.526 Y93.548 E.03019
G1 X121.756 Y93.413 E.01003
G1 X121.813 Y93.201 E.00826
G1 X122.551 Y93.011 E.02867
G1 X123.207 Y92.896 E.02506
G1 X123.864 Y92.817 E.0249
G1 X124.074 Y92.998 E.01043
G1 X124.329 Y93.051 E.0098
G1 X124.85 Y93.038 E.01961
G1 X125.677 Y93.051 E.03112
G1 X125.923 Y92.998 E.00947
G1 X126.04 Y92.823 E.00792
G1 X126.799 Y92.897 E.02869
G1 X127.455 Y93.013 E.02506
G1 X128.099 Y93.163 E.02488
G1 X128.235 Y93.405 E.01044
G1 X128.456 Y93.542 E.00978
G1 X129.656 Y93.978 E.04804
G1 X129.951 Y94.039 E.01133
G1 X130.142 Y93.913 E.00861
G1 X130.83 Y94.242 E.02869
G1 X131.407 Y94.575 E.02507
G1 X131.961 Y94.937 E.0249
G1 X132.006 Y95.211 E.01045
G1 X132.166 Y95.415 E.00975
G1 X132.574 Y95.74 E.01963
G1 X133.199 Y96.281 E.0311
G1 X133.422 Y96.4 E.00951
G1 X133.624 Y96.34 E.00793
G1 X134.158 Y96.885 E.02871
G1 X134.586 Y97.395 E.02505
G1 X134.983 Y97.924 E.02489
G1 X134.974 Y97.969 E.00173
M204 S1000
G1 X135.317 Y98.111 F10800
M204 S800
;TYPE:External perimeter
G1 F954.707
G1 X135.307 Y98.165 E.00207
G1 X135.334 Y98.248 E.00328
G1 X136.042 Y99.464 E.05294
G1 X136.269 Y99.503 E.00867
G1 X136.326 Y99.473 E.00242
G1 X136.753 Y100.426 E.03929
G1 X137.009 Y101.152 E.02896
G1 X137.235 Y101.953 E.03131
G1 X137.075 Y102.016 E.00647
G1 X137.023 Y102.103 E.00381
G1 X137.02 Y102.189 E.00324
G1 X137.285 Y103.603 E.05413
G1 X137.469 Y103.689 E.00764
M73 P1 R37
G1 X137.533 Y103.68 E.00243
G1 X137.609 Y104.722 E.03931
G1 X137.601 Y105.492 E.02897
G1 X137.54 Y106.321 E.03128
G1 X137.367 Y106.326 E.00651
G1 X137.289 Y106.39 E.0038
G1 X137.249 Y106.523 E.00523
G1 X137.017 Y107.853 E.0508
G1 X137.166 Y108.032 E.00876
G1 X137.229 Y108.046 E.00243
G1 X137.018 Y108.803 E.02957
