; generated by PrusaSlicer 2.9.3 on 2025-11-07 at 12:24:44 UTC


;
;
; 

; external perimeters extrusion width = 0.45mm
; perimeters extrusion width = 0.45mm
; infill extrusion width = 0.45mm
; solid infill extrusion width = 0.45mm
; top infill extrusion width = 0.40mm
; first layer extrusion width = 0.42mm

; external perimeters extrusion width = 0.45mm
; perimeters extrusion width = 0.45mm
; infill extrusion width = 0.45mm
; solid infill extrusion width = 0.45mm
; top infill extrusion width = 0.40mm
; first layer extrusion width = 0.42mm

M73 P0 R86
M73 Q0 S87
M201 X1000 Y1000 Z200 E5000 ; sets maximum accelerations, mm/sec^2
M203 X200 Y200 Z12 E120 ; sets maximum feedrates, mm / sec
M204 S1250 T1250 ; sets acceleration (S) and retract acceleration (R), mm/sec^2
M205 X8.00 Y8.00 Z0.40 E4.50 ; sets the jerk limits, mm/sec
M205 S0 T0 ; sets the minimum extruding and travel feed rate, mm/sec

; printing object tire_17.5-27x12.5mm_treaded_0.75mm_tol.stl id:0 copy 0
; stop printing object tire_17.5-27x12.5mm_treaded_0.75mm_tol.stl id:0 copy 0
; printing object tire_17.5-27x12.5mm_treaded_0.75mm_tol.stl id:1 copy 0
; stop printing object tire_17.5-27x12.5mm_treaded_0.75mm_tol.stl id:1 copy 0

;TYPE:Custom
M862.3 P "MK3S" ; printer model check
M862.1 P0.4 ; nozzle diameter check
M115 U3.14.1 ; tell printer latest fw version
G90 ; use absolute coordinates
M83 ; extruder relative mode
M104 S238 ; set extruder temp
M140 S50 ; set bed temp
M190 S50 ; wait for bed temp
M109 S238 ; wait for extruder temp
G28 W ; home all without mesh bed level
G80 X90.66 Y88.9343 W68.5116 H31.8905 ; mesh bed levelling

G1 Z0.2 F720
G1 Y-3 F1000 ; go outside print area
G92 E0
G1 X60 E9 F1000 ; intro line
G1 X100 E12.5 F1000 ; intro line

G92 E0
M221 S95

; Don't change E values below. Excessive value can damage the printer.
M907 E430 ; set extruder motor current
G21 ; set units to millimeters
G90 ; use absolute coordinates
M83 ; use relative distances for extrusion
M900 K0 ; Filament gcode
M107
;LAYER_CHANGE
;Z:0.2
;HEIGHT:0.2
G1 E-2.5 F3600
G1 Z.2 F720
G1 X95.344 Y93.96 F10800
G1 Z.2 F720
G1 E2.5 F1500
M204 S800
;TYPE:Skirt/Brim
;WIDTH:0.42
G1 F954.706
G1 X96.071 Y93.267 E.03779
G1 X97.645 Y92.029 E.07535
G1 X99.012 Y91.189 E.06037
G1 X100.569 Y90.447 E.06489
G1 X101.773 Y90.008 E.04822
G1 X103.325 Y89.6 E.06038
G1 X105.03 Y89.341 E.06489
G1 X106.023 Y89.278 E.03744
G1 X143.941 Y89.127 E1.42668
G1 X145.538 Y89.275 E.06034
G1 X146.506 Y89.446 E.03699
G1 X148.058 Y89.853 E.06037
G1 X149.263 Y90.292 E.04825
G1 X150.714 Y90.977 E.06037
G1 X151.565 Y91.468 E.03697
G1 X152.884 Y92.382 E.06038
G1 X154.488 Y93.805 E.08068
G1 X155.552 Y95.005 E.06034
G1 X156.628 Y96.53 E.07022
G1 X157.195 Y97.52 E.04293
G1 X157.866 Y98.977 E.06035
G1 X158.417 Y100.612 E.06492
G1 X158.848 Y102.712 E.08066
G1 X158.98 Y104.311 E.06037
G1 X158.98 Y105.294 E.03699
G1 X158.848 Y106.893 E.06037
G1 X158.625 Y108.155 E.04822
G1 X158.202 Y109.703 E.06038
G1 X157.866 Y110.627 E.03699
G1 X157.195 Y112.084 E.06035
G1 X156.554 Y113.195 E.04826
G1 X155.627 Y114.505 E.06038
G1 X154.995 Y115.258 E.03699
G1 X153.866 Y116.398 E.06037
G1 X152.884 Y117.222 E.04823
G1 X151.565 Y118.136 E.06038
G1 X150.714 Y118.627 E.03697
G1 X149.263 Y119.312 E.06037
G1 X148.058 Y119.751 E.04825
G1 X146.506 Y120.159 E.06038
G1 X144.801 Y120.418 E.06489
G1 X143.809 Y120.481 E.0374
G1 X106.032 Y120.636 E1.42138
G1 X104.174 Y120.467 E.0702
G1 X102.486 Y120.114 E.06489
G1 X100.569 Y119.467 E.07612
G1 X98.369 Y118.354 E.09277
G1 X96.837 Y117.289 E.0702
G1 X95.344 Y115.954 E.07536
G1 X93.759 Y114.065 E.09278
G1 X92.703 Y112.364 E.07533
G1 X91.966 Y110.782 E.06567
G1 X91.414 Y109.148 E.06489
G1 X91.178 Y108.172 E.03778
G1 X90.984 Y107.048 E.04292
G1 X90.849 Y105.328 E.06491
G1 X90.903 Y103.604 E.0649
G1 X91.178 Y101.742 E.07082
G1 X91.414 Y100.766 E.03778
G1 X91.966 Y99.132 E.06489
G1 X92.637 Y97.675 E.06035
G1 X93.278 Y96.564 E.04826
G1 X94.279 Y95.16 E.06488
G1 X95.304 Y94.005 E.0581
M204 S1000
G1 E-2.5 F3600
; printing object tire_17.5-27x12.5mm_treaded_0.75mm_tol.stl id:0 copy 0
G1 X103.538 Y113.614 F10800
G1 E2.5 F1500
M204 S800
;TYPE:Perimeter
;WIDTH:0.419999
G1 F954.707
G1 X102.923 Y113.378 E.02478
G1 X102.282 Y113.073 E.02671
G1 X101.699 Y112.739 E.02528
G1 X101.199 Y112.402 E.02269
G1 X100.736 Y112.045 E.022
G1 X100.219 Y111.589 E.02594
G1 X99.701 Y111.053 E.02805
G1 X99.369 Y110.661 E.01933
G1 X99.047 Y110.239 E.01997
G1 X98.699 Y109.71 E.02382
G1 X98.355 Y109.088 E.02674
G1 X98.059 Y108.442 E.02674
G1 X97.828 Y107.812 E.02525
G1 X97.661 Y107.232 E.02271
G1 X97.536 Y106.661 E.02199
G1 X97.433 Y105.979 E.02595
G1 X97.38 Y105.236 E.02803
G1 X97.378 Y104.723 E.0193
G1 X97.403 Y104.192 E.02
G1 X97.477 Y103.563 E.02383
G1 X97.61 Y102.878 E.02625
G1 X97.801 Y102.181 E.02719
G1 X98.029 Y101.549 E.02528
G1 X98.274 Y100.998 E.02269
G1 X98.545 Y100.48 E.022
G1 X98.906 Y99.89 E.02602
G1 X99.342 Y99.288 E.02797
G1 X99.671 Y98.894 E.01931
G1 X100.031 Y98.503 E.02
G1 X100.521 Y98.042 E.02531
G1 X101.033 Y97.629 E.02475
G1 X101.628 Y97.218 E.02721
G1 X102.209 Y96.881 E.02527
G1 X102.751 Y96.616 E.0227
G1 X103.292 Y96.394 E.022
G1 X103.947 Y96.174 E.026
G1 X104.668 Y95.993 E.02797
G1 X105.173 Y95.902 E.01931
G1 X105.977 Y95.818 E.03042
G1 X107.042 Y95.809 E.04007
G1 X107.75 Y95.876 E.02676
G1 X108.412 Y95.991 E.02528
G1 X109.126 Y96.171 E.0277
G1 X109.811 Y96.402 E.0272
G1 X110.434 Y96.669 E.0255
G1 X110.927 Y96.924 E.02088
G1 X111.696 Y97.389 E.03381
G1 X112.267 Y97.812 E.02674
G1 X112.803 Y98.278 E.02672
G1 X113.302 Y98.784 E.02674
G1 X113.735 Y99.297 E.02526
G1 X114.175 Y99.904 E.02821
G1 X114.543 Y100.512 E.02674
G1 X114.848 Y101.116 E.02546
G1 X115.062 Y101.628 E.02088
G1 X115.352 Y102.479 E.03383
G1 X115.518 Y103.17 E.02674
G1 X115.629 Y103.872 E.02674
G1 X115.686 Y104.58 E.02672
G1 X115.688 Y105.251 E.02525
G1 X115.634 Y105.999 E.02822
G1 X115.526 Y106.701 E.02672
G1 X115.372 Y107.36 E.02546
G1 X115.207 Y107.89 E.02089
G1 X114.882 Y108.728 E.03382
G1 X114.564 Y109.364 E.02675
G1 X114.199 Y109.973 E.02671
G1 X113.787 Y110.552 E.02674
G1 X113.357 Y111.068 E.02527
G1 X112.835 Y111.606 E.0282
G1 X112.301 Y112.074 E.02672
G1 X111.759 Y112.48 E.02548
G1 X111.292 Y112.78 E.02088
G1 X110.504 Y113.213 E.03383
G1 X109.852 Y113.496 E.02674
G1 X109.181 Y113.728 E.02671
G1 X108.493 Y113.907 E.02675
G1 X107.832 Y114.025 E.02526
G1 X107.087 Y114.102 E.02818
G1 X106.376 Y114.118 E.02676
G1 X105.7 Y114.08 E.02547
G1 X105.15 Y114.009 E.02087
G1 X104.268 Y113.835 E.03382
G1 X103.594 Y113.635 E.02645
M204 S1000
G1 X103.673 Y113.263 F10800
M204 S800
;TYPE:External perimeter
G1 F954.707
G1 X103.059 Y113.026 E.02476
G1 X102.444 Y112.733 E.02563
G1 X101.888 Y112.413 E.02414
G1 X101.412 Y112.091 E.02162
G1 X100.973 Y111.751 E.02089
G1 X100.478 Y111.314 E.02484
G1 X99.98 Y110.8 E.02693
G1 X99.643 Y110.399 E.01971
G1 X99.21 Y109.8 E.02781
G1 X98.685 Y108.906 E.03901
G1 X98.402 Y108.286 E.02564
G1 X98.182 Y107.683 E.02415
G1 X98.025 Y107.131 E.02159
G1 X97.906 Y106.588 E.02092
G1 X97.808 Y105.936 E.02481
G1 X97.757 Y105.221 E.02697
G1 X97.757 Y104.698 E.01968
G1 X97.81 Y103.96 E.02784
G1 X97.98 Y102.951 E.0385
G1 X98.164 Y102.282 E.02611
G1 X98.383 Y101.678 E.02417
G1 X98.618 Y101.154 E.02161
G1 X98.875 Y100.662 E.02088
G1 X99.222 Y100.097 E.02495
G1 X99.64 Y99.519 E.02684
G1 X99.976 Y99.118 E.01968
G1 X100.76 Y98.334 E.04172
G1 X101.27 Y97.923 E.02464
G1 X101.841 Y97.529 E.0261
G1 X102.397 Y97.207 E.02417
G1 X102.914 Y96.956 E.02162
G1 X103.428 Y96.745 E.02091
G1 X104.056 Y96.535 E.02491
G1 X104.748 Y96.361 E.02685
G1 X105.263 Y96.27 E.01968
G1 X105.999 Y96.194 E.02784
G1 X107.035 Y96.186 E.03898
G1 X107.714 Y96.252 E.02567
G1 X108.346 Y96.363 E.02414
G1 X109.032 Y96.536 E.02662
G1 X109.689 Y96.759 E.0261
G1 X110.284 Y97.015 E.02437
G1 X110.751 Y97.257 E.01979
G1 X111.495 Y97.708 E.03273
G1 X112.042 Y98.114 E.02563
G1 X112.555 Y98.562 E.02563
G1 X113.033 Y99.048 E.02565
G1 X113.446 Y99.539 E.02414
G1 X113.868 Y100.123 E.02711
G1 X114.22 Y100.706 E.02562
G1 X114.511 Y101.285 E.02438
G1 X114.713 Y101.77 E.01977
G1 X114.993 Y102.594 E.03274
G1 X115.151 Y103.257 E.02564
G1 X115.257 Y103.93 E.02563
G1 X115.31 Y104.609 E.02563
G1 X115.311 Y105.251 E.02416
G1 X115.258 Y105.97 E.02713
G1 X115.154 Y106.643 E.02562
G1 X115.005 Y107.273 E.02436
G1 X114.847 Y107.775 E.0198
G1 X114.533 Y108.586 E.03272
G1 X114.227 Y109.195 E.02564
G1 X113.876 Y109.778 E.0256
G1 X113.48 Y110.333 E.02565
G1 X113.068 Y110.825 E.02414
G1 X112.566 Y111.342 E.02711
G1 X112.053 Y111.79 E.02563
G1 X111.534 Y112.178 E.02438
G1 X111.091 Y112.461 E.01978
G1 X110.328 Y112.879 E.03273
G1 X109.703 Y113.15 E.02563
G1 X109.059 Y113.371 E.02562
G1 X108.399 Y113.541 E.02564
G1 X107.767 Y113.653 E.02415
G1 X107.05 Y113.727 E.02712
G1 X106.369 Y113.741 E.02563
G1 X105.722 Y113.703 E.02439
G1 X105.201 Y113.635 E.01977
G1 X104.348 Y113.466 E.03272
G1 X103.73 Y113.282 E.02426
M204 S1000
G1 X103.356 Y113.14 F10800
G1 E-2.5 F3600
G1 X113.565 Y114.929 F10800
G1 E2.5 F1500
M204 S800
;TYPE:Perimeter
G1 F954.707
G1 X113.567 Y114.951 E.00083
G1 X112.934 Y115.385 E.02888
G1 X112.357 Y115.718 E.02507
G1 X111.766 Y116.017 E.02492
G1 X111.492 Y115.918 E.01096
G1 X111.25 Y115.956 E.00922
G1 X110.094 Y116.379 E.04632
G1 X109.811 Y116.513 E.01178
G1 X109.725 Y116.754 E.00963
G1 X108.981 Y116.946 E.02891
G1 X108.325 Y117.061 E.02506
G1 X107.668 Y117.14 E.0249
G1 X107.444 Y116.953 E.01098
G1 X107.203 Y116.906 E.00924
G1 X106.682 Y116.919 E.01961
G1 X105.855 Y116.906 E.03112
G1 X105.622 Y116.953 E.00894
G1 X105.497 Y117.135 E.00831
G1 X104.733 Y117.06 E.02888
G1 X104.077 Y116.944 E.02506
G1 X103.433 Y116.794 E.02488
G1 X103.286 Y116.542 E.01098
G1 X103.076 Y116.415 E.00923
G1 X101.919 Y115.996 E.0463
G1 X101.616 Y115.917 E.01178
G1 X101.395 Y116.046 E.00963
G1 X100.702 Y115.715 E.0289
G1 X100.125 Y115.382 E.02507
G1 X99.571 Y115.02 E.0249
G1 X99.52 Y114.733 E.01097
G1 X99.366 Y114.542 E.00923
G1 X98.958 Y114.217 E.01963
G1 X98.333 Y113.676 E.0311
G1 X98.124 Y113.561 E.00898
G1 X97.912 Y113.621 E.00829
G1 X97.374 Y113.072 E.02892
G1 X96.946 Y112.562 E.02505
G1 X96.549 Y112.032 E.02492
M73 Q0 S86
G1 X96.599 Y111.745 E.01096
G1 X96.52 Y111.513 E.00922
G1 X95.902 Y110.448 E.04633
G1 X95.721 Y110.193 E.01177
G1 X95.468 Y110.15 E.00966
G1 X95.151 Y109.451 E.02888
G1 X94.923 Y108.824 E.0251
G1 X94.731 Y108.191 E.02489
G1 X94.876 Y107.938 E.01097
G1 X94.881 Y107.693 E.00922
G1 X94.778 Y107.182 E.01961
G1 X94.647 Y106.366 E.0311
G1 X94.56 Y106.143 E.00901
G1 X94.36 Y106.053 E.00825
G1 X94.3 Y105.287 E.02891
G1 X94.3 Y104.621 E.02506
G1 X94.337 Y103.96 E.02491
G1 X94.56 Y103.772 E.01097
G1 X94.648 Y103.543 E.00923
G1 X94.857 Y102.343 E.04583
G1 X94.885 Y102.019 E.01224
G1 X94.719 Y101.823 E.00966
G1 X94.925 Y101.084 E.02887
G1 X95.153 Y100.457 E.0251
G1 X95.413 Y99.849 E.02488
G1 X95.687 Y99.749 E.01097
G1 X95.848 Y99.564 E.00923
G1 X96.098 Y99.106 E.01963
G1 X96.522 Y98.396 E.03111
G1 X96.599 Y98.171 E.00895
G1 X96.503 Y97.972 E.00831
G1 X96.95 Y97.347 E.02891
G1 X97.378 Y96.837 E.02505
G1 X97.831 Y96.354 E.02492
G1 X98.123 Y96.354 E.01099
G1 X98.337 Y96.235 E.00921
G1 X99.269 Y95.451 E.04582
G1 X99.498 Y95.22 E.01224
G1 X99.497 Y94.963 E.00967
G1 X100.13 Y94.529 E.02888
G1 X100.708 Y94.196 E.0251
G1 X101.298 Y93.897 E.02489
G1 X101.572 Y93.996 E.01096
G1 X101.814 Y93.958 E.00922
G1 X102.3 Y93.768 E.01963
G1 X103.081 Y93.497 E.0311
G1 X103.285 Y93.373 E.00898
G1 X103.339 Y93.16 E.00827
G1 X104.083 Y92.968 E.02891
G1 X104.739 Y92.853 E.02506
G1 X105.396 Y92.774 E.0249
G1 X105.62 Y92.961 E.01098
G1 X105.861 Y93.008 E.00924
G1 X107.089 Y93.006 E.0462
G1 X107.403 Y92.976 E.01187
G1 X107.567 Y92.779 E.00964
G1 X108.331 Y92.854 E.02888
G1 X108.987 Y92.97 E.02506
G1 X109.631 Y93.12 E.02488
G1 X109.778 Y93.372 E.01098
G1 X109.988 Y93.499 E.00923
G1 X110.483 Y93.665 E.01964
G1 X111.255 Y93.96 E.0311
G1 X111.49 Y93.996 E.00895
G1 X111.669 Y93.868 E.00828
G1 X112.362 Y94.199 E.0289
G1 X112.939 Y94.532 E.02507
G1 X113.493 Y94.894 E.0249
G1 X113.544 Y95.181 E.01097
G1 X113.698 Y95.372 E.00923
G1 X114.643 Y96.162 E.04634
G1 X114.9 Y96.339 E.01174
G1 X115.152 Y96.293 E.00964
G1 X115.69 Y96.842 E.02892
G1 X116.118 Y97.352 E.02505
G1 X116.515 Y97.882 E.02492
G1 X116.465 Y98.169 E.01096
G1 X116.544 Y98.401 E.00922
G1 X116.816 Y98.846 E.01962
G1 X117.219 Y99.568 E.03111
G1 X117.376 Y99.748 E.00899
G1 X117.596 Y99.764 E.0083
G1 X117.913 Y100.463 E.02888
G1 X118.141 Y101.09 E.0251
G1 X118.333 Y101.723 E.02489
G1 X118.188 Y101.976 E.01097
G1 X118.183 Y102.221 E.00922
G1 X118.399 Y103.433 E.04632
G1 X118.482 Y103.735 E.01178
G1 X118.704 Y103.861 E.0096
G1 X118.764 Y104.686 E.03112
G1 X118.764 Y105.293 E.02284
G1 X118.727 Y105.954 E.02491
G1 X118.504 Y106.142 E.01097
G1 X118.416 Y106.371 E.00923
G1 X118.338 Y106.887 E.01964
G1 X118.182 Y107.698 E.03107
G1 X118.187 Y107.937 E.00899
G1 X118.345 Y108.091 E.0083
G1 X118.139 Y108.83 E.02887
G1 X117.911 Y109.457 E.0251
G1 X117.651 Y110.065 E.02488
G1 X117.377 Y110.165 E.01097
G1 X117.216 Y110.35 E.00923
G1 X116.602 Y111.417 E.04632
G1 X116.472 Y111.702 E.01179
G1 X116.561 Y111.942 E.00963
G1 X116.114 Y112.566 E.02888
G1 X115.686 Y113.077 E.02508
G1 X115.233 Y113.56 E.02492
G1 X114.942 Y113.56 E.01095
G1 X114.727 Y113.679 E.00925
G1 X114.336 Y114.024 E.01962
G1 X113.694 Y114.546 E.03113
G1 X113.545 Y114.732 E.00897
G1 X113.559 Y114.869 E.00518
M204 S1000
G1 X113.903 Y114.973 F10800
M204 S800
;TYPE:External perimeter
G1 F954.707
G1 X113.902 Y115.1 E.00478
G1 X113.942 Y115.151 E.00244
G1 X112.907 Y115.836 E.0467
G1 X112.454 Y116.091 E.01956
G1 X111.658 Y116.477 E.03329
G1 X111.567 Y116.33 E.0065
G1 X111.468 Y116.294 E.00396
G1 X111.387 Y116.307 E.00309
G1 X110.049 Y116.805 E.05372
G1 X109.989 Y117.009 E.008
G1 X110.009 Y117.07 E.00242
G1 X108.988 Y117.327 E.03961
G1 X108.288 Y117.445 E.02671
G1 X107.408 Y117.535 E.03328
G1 X107.374 Y117.366 E.00649
G1 X107.293 Y117.299 E.00396
G1 X105.807 Y117.287 E.05591
G1 X105.658 Y117.465 E.00873
G1 X105.656 Y117.529 E.00241
G1 X104.423 Y117.388 E.04669
G1 X103.912 Y117.293 E.01956
G1 X103.053 Y117.077 E.03333
G1 X103.079 Y116.906 E.00651
G1 X103.026 Y116.815 E.00396
G1 X102.956 Y116.772 E.00309
G1 X101.61 Y116.294 E.05374
G1 X101.433 Y116.412 E.008
G1 X101.409 Y116.471 E.0024
G1 X100.462 Y116.012 E.0396
G1 X99.85 Y115.653 E.0267
G1 X99.118 Y115.156 E.03329
G1 X99.2 Y115.004 E.0065
G1 X99.182 Y114.9 E.00397
G1 X98.051 Y113.937 E.05589
G1 X97.823 Y113.977 E.00871
G1 X97.78 Y114.025 E.00242
G1 X96.926 Y113.124 E.04671
G1 X96.595 Y112.723 E.01956
G1 X96.077 Y112.005 E.03331
G1 X96.206 Y111.891 E.00648
G1 X96.224 Y111.787 E.00397
G1 X96.198 Y111.709 E.00309
G1 X95.475 Y110.478 E.05371
G1 X95.263 Y110.454 E.00803
G1 X95.206 Y110.484 E.00242
G1 X94.776 Y109.524 E.03958
G1 X94.538 Y108.855 E.02672
G1 X94.297 Y108.004 E.03328
G1 X94.457 Y107.941 E.00647
G1 X94.51 Y107.849 E.00399
G1 X94.492 Y107.671 E.00673
G1 X94.263 Y106.384 E.04918
G1 X94.063 Y106.268 E.0087
G1 X93.999 Y106.277 E.00243
G1 X93.923 Y105.038 E.04671
G1 X93.928 Y104.519 E.01953
G1 X93.993 Y103.636 E.03331
G1 X94.165 Y103.631 E.00647
G1 X94.246 Y103.563 E.00398
G1 X94.275 Y103.487 E.00306
G1 X94.513 Y102.079 E.05373
G1 X94.366 Y101.925 E.00801
G1 X94.303 Y101.911 E.00243
G1 X94.591 Y100.899 E.03959
G1 X94.839 Y100.234 E.0267
G1 X95.201 Y99.427 E.03328
G1 X95.364 Y99.481 E.00646
G1 X95.463 Y99.445 E.00396
G1 X96.216 Y98.164 E.05591
G1 X96.137 Y97.946 E.00872
G1 X96.082 Y97.912 E.00243
G1 X96.821 Y96.915 E.04669
G1 X97.159 Y96.52 E.01956
G1 X97.775 Y95.885 E.03329
G1 X97.911 Y95.992 E.00651
G1 X98.016 Y95.992 E.00395
G1 X98.088 Y95.952 E.0031
G1 X99.175 Y95.026 E.05373
G1 X99.162 Y94.814 E.00799
G1 X99.122 Y94.763 E.00244
G1 X99.993 Y94.173 E.03958
G1 X100.61 Y93.822 E.02671
G1 X101.406 Y93.437 E.03327
G1 X101.497 Y93.584 E.0065
G1 X101.596 Y93.62 E.00396
G1 X102.996 Y93.122 E.05591
G1 X103.075 Y92.905 E.00869
G1 X103.055 Y92.844 E.00242
G1 X104.262 Y92.554 E.04671
G1 X104.775 Y92.469 E.01956
G1 X105.656 Y92.379 E.03332
G1 X105.69 Y92.548 E.00649
G1 X105.771 Y92.615 E.00396
